;FLAVOR:Marlin
;TIME:8010
;Filament used: 3.47019m
;Layer height: 0.2
;Generated with Cura_SteamEngine 3.6.0
M140 S60
M105
M190 S60
M104 S210
M105
M109 S210
M82 ;absolute extrusion mode
G28 ;Home
G1 Z15.0 F6000 ;Move the platform down 15mm
;Prime the extruder
G92 E0
G1 F200 E3
G92 E0
G92 E0
G1 F2400 E-5
;LAYER_COUNT:9
;LAYER:0
M107
M204 S5000
M205 X30 Y30
G0 F3600 X49.939 Y58.497 Z0.2
M204 S500
M205 X20 Y20
;TYPE:SKIRT
G1 F2400 E0
G1 F900 X50.521 Y58.082 E0.02377
G1 X51.146 Y57.733 E0.04758
G1 X51.806 Y57.457 E0.07138
G1 X52.492 Y57.256 E0.09515
G1 X53.197 Y57.133 E0.11896
G1 X53.945 Y57.089 E0.14388
G1 X166.056 Y57.09 E3.8727
G1 X166.77 Y57.13 E3.89649
G1 X167.475 Y57.249 E3.92027
G1 X168.163 Y57.447 E3.94408
G1 X168.824 Y57.72 E3.96787
G1 X169.451 Y58.065 E3.99167
G1 X170.035 Y58.477 E4.01544
G1 X170.569 Y58.952 E4.03921
G1 X171.048 Y59.484 E4.06302
G1 X171.463 Y60.066 E4.0868
G1 X171.812 Y60.691 E4.1106
G1 X172.088 Y61.351 E4.1344
G1 X172.289 Y62.037 E4.15817
G1 X172.412 Y62.742 E4.18198
G1 X172.456 Y63.49 E4.2069
G1 X172.455 Y156.511 E7.30079
G1 X172.415 Y157.225 E7.32457
G1 X172.296 Y157.93 E7.34835
G1 X172.098 Y158.618 E7.37217
G1 X171.825 Y159.279 E7.39595
G1 X171.48 Y159.906 E7.41976
G1 X171.068 Y160.49 E7.44353
G1 X170.593 Y161.024 E7.4673
G1 X170.061 Y161.503 E7.49111
G1 X169.479 Y161.918 E7.51488
G1 X168.854 Y162.267 E7.53869
G1 X168.194 Y162.543 E7.56248
G1 X167.508 Y162.744 E7.58626
G1 X166.803 Y162.867 E7.61006
G1 X166.055 Y162.911 E7.63498
G1 X53.944 Y162.91 E11.36381
G1 X53.23 Y162.87 E11.3876
G1 X52.525 Y162.751 E11.41138
G1 X51.837 Y162.553 E11.43519
G1 X51.176 Y162.28 E11.45897
G1 X50.549 Y161.935 E11.48278
G1 X49.965 Y161.523 E11.50655
G1 X49.431 Y161.048 E11.53032
G1 X48.952 Y160.516 E11.55413
G1 X48.537 Y159.934 E11.5779
G1 X48.188 Y159.309 E11.60171
G1 X47.912 Y158.649 E11.62551
G1 X47.711 Y157.963 E11.64928
G1 X47.588 Y157.258 E11.67308
G1 X47.544 Y156.51 E11.69801
G1 X47.545 Y63.489 E14.7919
G1 X47.585 Y62.775 E14.81568
G1 X47.704 Y62.07 E14.83946
G1 X47.902 Y61.382 E14.86327
G1 X48.175 Y60.721 E14.88706
G1 X48.52 Y60.094 E14.91086
G1 X48.932 Y59.51 E14.93463
G1 X49.407 Y58.976 E14.9584
G1 X49.939 Y58.497 E14.98221
M204 S5000
M205 X30 Y30
G0 F3600 X50.329 Y58.701
M204 S500
M205 X20 Y20
G1 F900 X50.905 Y58.316 E15.00526
G1 X51.521 Y58.001 E15.02827
G1 X52.169 Y57.758 E15.05129
G1 X52.842 Y57.591 E15.07435
G1 X53.529 Y57.503 E15.09739
G1 X53.945 Y57.489 E15.11123
G1 X166.056 Y57.49 E18.84006
G1 X166.747 Y57.53 E18.86308
G1 X167.43 Y57.649 E18.88614
G1 X168.093 Y57.847 E18.90915
G1 X168.73 Y58.119 E18.93219
G1 X169.331 Y58.463 E18.95522
G1 X169.889 Y58.874 E18.97827
G1 X170.395 Y59.346 E19.00129
G1 X170.844 Y59.874 E19.02434
G1 X171.229 Y60.449 E19.04735
G1 X171.544 Y61.066 E19.0704
G1 X171.787 Y61.714 E19.09341
G1 X171.954 Y62.387 E19.11648
G1 X172.042 Y63.074 E19.13951
G1 X172.056 Y63.49 E19.15336
G1 X172.055 Y156.511 E22.24725
G1 X172.015 Y157.202 E22.27027
G1 X171.896 Y157.885 E22.29333
G1 X171.698 Y158.548 E22.31634
G1 X171.426 Y159.185 E22.33938
G1 X171.082 Y159.786 E22.36241
G1 X170.671 Y160.344 E22.38546
G1 X170.199 Y160.85 E22.40848
G1 X169.671 Y161.299 E22.43153
G1 X169.095 Y161.684 E22.45457
G1 X168.479 Y161.999 E22.47758
G1 X167.831 Y162.242 E22.5006
G1 X167.158 Y162.409 E22.52366
G1 X166.471 Y162.497 E22.5467
G1 X166.055 Y162.511 E22.56055
G1 X53.944 Y162.51 E26.28937
G1 X53.253 Y162.47 E26.31239
G1 X52.57 Y162.351 E26.33545
G1 X51.907 Y162.153 E26.35847
G1 X51.27 Y161.881 E26.3815
G1 X50.669 Y161.537 E26.40454
G1 X50.111 Y161.126 E26.42759
G1 X49.605 Y160.654 E26.4506
G1 X49.156 Y160.126 E26.47365
G1 X48.771 Y159.551 E26.49667
G1 X48.456 Y158.934 E26.51971
G1 X48.213 Y158.286 E26.54273
G1 X48.046 Y157.613 E26.56579
G1 X47.958 Y156.926 E26.58883
G1 X47.944 Y156.51 E26.60267
G1 X47.945 Y63.489 E29.69656
G1 X47.985 Y62.798 E29.71958
G1 X48.104 Y62.115 E29.74264
G1 X48.302 Y61.452 E29.76566
G1 X48.574 Y60.815 E29.78869
G1 X48.918 Y60.214 E29.81173
G1 X49.329 Y59.656 E29.83478
G1 X49.801 Y59.15 E29.85779
G1 X50.329 Y58.701 E29.88084
M204 S5000
M205 X30 Y30
G0 F3600 X50.194 Y59.331
M204 S500
M205 X20 Y20
G1 F900 X50.717 Y58.913 E29.90311
G1 X51.285 Y58.561 E29.92534
G1 X51.892 Y58.279 E29.9476
G1 X52.528 Y58.071 E29.96985
G1 X53.184 Y57.941 E29.9921
G1 X53.945 Y57.889 E30.01747
G1 X166.056 Y57.89 E33.74629
G1 X166.724 Y57.93 E33.76855
G1 X167.382 Y58.049 E33.79079
G1 X168.022 Y58.246 E33.81306
G1 X168.633 Y58.518 E33.83531
G1 X169.207 Y58.861 E33.85755
G1 X169.737 Y59.27 E33.87982
G1 X170.214 Y59.739 E33.90207
G1 X170.632 Y60.261 E33.92431
G1 X170.984 Y60.83 E33.94656
G1 X171.266 Y61.437 E33.96882
G1 X171.474 Y62.073 E33.99108
G1 X171.604 Y62.729 E34.01332
G1 X171.656 Y63.49 E34.03869
G1 X171.655 Y156.511 E37.13258
G1 X171.615 Y157.179 E37.15484
G1 X171.496 Y157.837 E37.17708
G1 X171.299 Y158.477 E37.19935
G1 X171.027 Y159.088 E37.2216
G1 X170.684 Y159.662 E37.24384
G1 X170.275 Y160.192 E37.2661
G1 X169.806 Y160.669 E37.28835
G1 X169.283 Y161.087 E37.31062
G1 X168.715 Y161.439 E37.33285
G1 X168.108 Y161.721 E37.35511
G1 X167.472 Y161.929 E37.37736
G1 X166.816 Y162.059 E37.39961
G1 X166.055 Y162.111 E37.42498
G1 X53.944 Y162.11 E41.1538
G1 X53.276 Y162.07 E41.17606
G1 X52.618 Y161.951 E41.1983
G1 X51.978 Y161.754 E41.22057
G1 X51.367 Y161.482 E41.24282
G1 X50.793 Y161.139 E41.26506
G1 X50.263 Y160.73 E41.28732
G1 X49.786 Y160.261 E41.30957
G1 X49.368 Y159.739 E41.33182
G1 X49.016 Y159.17 E41.35407
G1 X48.734 Y158.563 E41.37633
G1 X48.526 Y157.927 E41.39859
G1 X48.396 Y157.271 E41.42083
G1 X48.344 Y156.51 E41.4462
G1 X48.345 Y63.489 E44.54009
G1 X48.385 Y62.821 E44.56235
G1 X48.504 Y62.163 E44.58459
G1 X48.701 Y61.523 E44.60686
G1 X48.973 Y60.912 E44.62911
G1 X49.316 Y60.338 E44.65135
G1 X49.725 Y59.808 E44.67361
G1 X50.194 Y59.331 E44.69586
M204 S5000
M205 X30 Y30
G0 F3600 X50.586 Y59.52
M204 S500
M205 X20 Y20
G1 F900 X51.102 Y59.135 E44.71727
G1 X51.663 Y58.816 E44.73874
G1 X52.259 Y58.57 E44.76018
G1 X52.88 Y58.399 E44.78161
G1 X53.518 Y58.307 E44.80305
G1 X53.945 Y58.289 E44.81726
G1 X166.056 Y58.29 E48.54609
G1 X166.699 Y58.33 E48.56752
G1 X167.333 Y58.449 E48.58897
G1 X167.947 Y58.646 E48.61042
G1 X168.532 Y58.917 E48.63186
G1 X169.079 Y59.259 E48.65332
G1 X169.579 Y59.665 E48.67474
G1 X170.025 Y60.131 E48.69619
G1 X170.41 Y60.647 E48.71761
G1 X170.729 Y61.208 E48.73907
G1 X170.975 Y61.804 E48.76052
G1 X171.146 Y62.425 E48.78194
G1 X171.238 Y63.063 E48.80338
G1 X171.256 Y63.49 E48.81759
G1 X171.255 Y156.511 E51.91149
G1 X171.215 Y157.154 E51.93291
G1 X171.096 Y157.788 E51.95437
G1 X170.899 Y158.402 E51.97582
G1 X170.628 Y158.987 E51.99726
G1 X170.286 Y159.534 E52.01872
G1 X169.88 Y160.034 E52.04014
G1 X169.414 Y160.48 E52.06159
G1 X168.898 Y160.865 E52.083
G1 X168.337 Y161.184 E52.10447
G1 X167.741 Y161.43 E52.12591
G1 X167.12 Y161.601 E52.14734
G1 X166.482 Y161.693 E52.16878
G1 X166.055 Y161.711 E52.18299
G1 X53.944 Y161.71 E55.91182
G1 X53.301 Y161.67 E55.93325
G1 X52.667 Y161.551 E55.9547
G1 X52.053 Y161.354 E55.97615
G1 X51.468 Y161.083 E55.99759
G1 X50.921 Y160.741 E56.01905
G1 X50.421 Y160.335 E56.04047
G1 X49.975 Y159.869 E56.06193
G1 X49.59 Y159.353 E56.08334
G1 X49.271 Y158.792 E56.1048
G1 X49.025 Y158.196 E56.12625
G1 X48.854 Y157.575 E56.14767
G1 X48.762 Y156.937 E56.16911
G1 X48.744 Y156.51 E56.18333
G1 X48.745 Y63.489 E59.27722
G1 X48.785 Y62.846 E59.29864
G1 X48.904 Y62.212 E59.3201
G1 X49.101 Y61.598 E59.34155
G1 X49.372 Y61.013 E59.36299
G1 X49.714 Y60.466 E59.38445
G1 X50.12 Y59.966 E59.40587
G1 X50.586 Y59.52 E59.42732
M204 S5000
M205 X30 Y30
G1 F2400 E54.42732
;MESH:letter_3.stl
G0 F3600 X54.549 Y62.815
G0 X54.549 Y64.094
G0 X69.945 Y79.49
G0 X70.015 Y79.56
M204 S500
M205 X20 Y20
;TYPE:WALL-INNER
G1 F2400 E59.42732
G1 F900 X54.535 Y79.56 E59.94219
G1 X54.535 Y64.08 E60.45706
G1 X70.015 Y64.08 E60.97192
G1 X70.015 Y79.56 E61.48679
M204 S5000
M205 X30 Y30
G0 F3600 X70.415 Y79.96
M204 S500
M205 X20 Y20
;TYPE:WALL-OUTER
G1 F900 X54.135 Y79.96 E62.02827
G1 X54.135 Y63.68 E62.56974
G1 X70.415 Y63.68 E63.11122
G1 X70.415 Y79.96 E63.65269
M204 S5000
M205 X30 Y30
G0 F3600 X70.215 Y79.96
G0 X69.945 Y79.49
G0 X69.625 Y79.17
M204 S500
M205 X20 Y20
;TYPE:SKIN
G1 F900 X54.925 Y79.17 E64.14161
G1 X54.925 Y64.47 E64.63054
G1 X69.625 Y64.47 E65.11946
G1 X69.625 Y79.17 E65.60839
M204 S5000
M205 X30 Y30
G0 F3600 X69.444 Y64.919
M204 S500
M205 X20 Y20
G1 F900 X69.175 Y64.65 E65.62104
M204 S5000
M205 X30 Y30
G0 F3600 X68.609 Y64.65
M204 S500
M205 X20 Y20
G1 F900 X69.444 Y65.485 E65.66031
M204 S5000
M205 X30 Y30
G0 F3600 X69.444 Y66.05
M204 S500
M205 X20 Y20
G1 F900 X68.044 Y64.65 E65.72617
M204 S5000
M205 X30 Y30
G0 F3600 X67.478 Y64.65
M204 S500
M205 X20 Y20
G1 F900 X69.444 Y66.616 E65.81864
M204 S5000
M205 X30 Y30
G0 F3600 X69.444 Y67.182
M204 S500
M205 X20 Y20
G1 F900 X66.912 Y64.65 E65.93774
M204 S5000
M205 X30 Y30
G0 F3600 X66.347 Y64.65
M204 S500
M205 X20 Y20
G1 F900 X69.444 Y67.747 E66.08341
M204 S5000
M205 X30 Y30
G0 F3600 X69.444 Y68.313
M204 S500
M205 X20 Y20
G1 F900 X65.781 Y64.65 E66.25571
M204 S5000
M205 X30 Y30
G0 F3600 X65.215 Y64.65
M204 S500
M205 X20 Y20
G1 F900 X69.444 Y68.879 E66.45463
M204 S5000
M205 X30 Y30
G0 F3600 X69.444 Y69.444
M204 S500
M205 X20 Y20
G1 F900 X64.65 Y64.65 E66.68012
M204 S5000
M205 X30 Y30
G0 F3600 X64.084 Y64.65
M204 S500
M205 X20 Y20
G1 F900 X69.444 Y70.01 E66.93224
M204 S5000
M205 X30 Y30
G0 F3600 X69.444 Y70.576
M204 S500
M205 X20 Y20
G1 F900 X63.518 Y64.65 E67.21098
M204 S5000
M205 X30 Y30
G0 F3600 X62.953 Y64.65
M204 S500
M205 X20 Y20
G1 F900 X69.444 Y71.142 E67.51632
M204 S5000
M205 X30 Y30
G0 F3600 X69.444 Y71.707
M204 S500
M205 X20 Y20
G1 F900 X62.387 Y64.65 E67.84826
M204 S5000
M205 X30 Y30
G0 F3600 X61.821 Y64.65
M204 S500
M205 X20 Y20
G1 F900 X69.444 Y72.273 E68.20682
M204 S5000
M205 X30 Y30
G0 F3600 X69.444 Y72.839
M204 S500
M205 X20 Y20
G1 F900 X61.255 Y64.65 E68.59201
M204 S5000
M205 X30 Y30
G0 F3600 X60.69 Y64.65
M204 S500
M205 X20 Y20
G1 F900 X69.444 Y73.404 E69.00377
M204 S5000
M205 X30 Y30
G0 F3600 X69.444 Y73.97
M204 S500
M205 X20 Y20
G1 F900 X60.124 Y64.65 E69.44215
M204 S5000
M205 X30 Y30
G0 F3600 X59.558 Y64.65
M204 S500
M205 X20 Y20
G1 F900 X69.444 Y74.536 E69.90716
M204 S5000
M205 X30 Y30
G0 F3600 X69.444 Y75.101
M204 S500
M205 X20 Y20
G1 F900 X58.993 Y64.65 E70.39875
M204 S5000
M205 X30 Y30
G0 F3600 X58.427 Y64.65
M204 S500
M205 X20 Y20
G1 F900 X69.444 Y75.667 E70.91695
M204 S5000
M205 X30 Y30
G0 F3600 X69.444 Y76.233
M204 S500
M205 X20 Y20
G1 F900 X57.861 Y64.65 E71.46178
M204 S5000
M205 X30 Y30
G0 F3600 X57.296 Y64.65
M204 S500
M205 X20 Y20
G1 F900 X69.444 Y76.798 E72.03318
M204 S5000
M205 X30 Y30
G0 F3600 X69.444 Y77.364
M204 S500
M205 X20 Y20
G1 F900 X56.73 Y64.65 E72.63121
M204 S5000
M205 X30 Y30
G0 F3600 X56.164 Y64.65
M204 S500
M205 X20 Y20
G1 F900 X69.444 Y77.93 E73.25586
M204 S5000
M205 X30 Y30
G0 F3600 X69.444 Y78.495
M204 S500
M205 X20 Y20
G1 F900 X55.599 Y64.65 E73.90709
M204 S5000
M205 X30 Y30
G0 F3600 X55.104 Y64.721
M204 S500
M205 X20 Y20
G1 F900 X69.372 Y78.989 E74.57821
M204 S5000
M205 X30 Y30
G0 F3600 X68.807 Y78.989
M204 S500
M205 X20 Y20
G1 F900 X55.104 Y65.287 E75.22274
M204 S5000
M205 X30 Y30
G0 F3600 X55.104 Y65.852
M204 S500
M205 X20 Y20
G1 F900 X68.241 Y78.989 E75.84066
M204 S5000
M205 X30 Y30
G0 F3600 X67.675 Y78.989
M204 S500
M205 X20 Y20
G1 F900 X55.104 Y66.418 E76.43196
M204 S5000
M205 X30 Y30
G0 F3600 X55.104 Y66.984
M204 S500
M205 X20 Y20
G1 F900 X67.11 Y78.989 E76.99666
M204 S5000
M205 X30 Y30
G0 F3600 X66.544 Y78.989
M204 S500
M205 X20 Y20
G1 F900 X55.104 Y67.549 E77.53477
M204 S5000
M205 X30 Y30
G0 F3600 X55.104 Y68.115
M204 S500
M205 X20 Y20
G1 F900 X65.978 Y78.989 E78.04624
M204 S5000
M205 X30 Y30
G0 F3600 X65.413 Y78.989
M204 S500
M205 X20 Y20
G1 F900 X55.104 Y68.681 E78.53113
M204 S5000
M205 X30 Y30
G0 F3600 X55.104 Y69.246
M204 S500
M205 X20 Y20
G1 F900 X64.847 Y78.989 E78.98941
M204 S5000
M205 X30 Y30
G0 F3600 X64.281 Y78.989
M204 S500
M205 X20 Y20
G1 F900 X55.104 Y69.812 E79.42106
M204 S5000
M205 X30 Y30
G0 F3600 X55.104 Y70.378
M204 S500
M205 X20 Y20
G1 F900 X63.715 Y78.989 E79.8261
M204 S5000
M205 X30 Y30
G0 F3600 X63.15 Y78.989
M204 S500
M205 X20 Y20
G1 F900 X55.104 Y70.944 E80.20453
M204 S5000
M205 X30 Y30
G0 F3600 X55.104 Y71.509
M204 S500
M205 X20 Y20
G1 F900 X62.584 Y78.989 E80.55637
M204 S5000
M205 X30 Y30
G0 F3600 X62.018 Y78.989
M204 S500
M205 X20 Y20
G1 F900 X55.104 Y72.075 E80.88158
M204 S5000
M205 X30 Y30
G0 F3600 X55.104 Y72.641
M204 S500
M205 X20 Y20
G1 F900 X61.453 Y78.989 E81.1802
M204 S5000
M205 X30 Y30
G0 F3600 X60.887 Y78.989
M204 S500
M205 X20 Y20
G1 F900 X55.104 Y73.206 E81.45221
M204 S5000
M205 X30 Y30
G0 F3600 X55.104 Y73.772
M204 S500
M205 X20 Y20
G1 F900 X60.321 Y78.989 E81.6976
M204 S5000
M205 X30 Y30
G0 F3600 X59.756 Y78.989
M204 S500
M205 X20 Y20
G1 F900 X55.104 Y74.338 E81.9164
M204 S5000
M205 X30 Y30
G0 F3600 X55.104 Y74.903
M204 S500
M205 X20 Y20
G1 F900 X59.19 Y78.989 E82.10859
M204 S5000
M205 X30 Y30
G0 F3600 X58.624 Y78.989
M204 S500
M205 X20 Y20
G1 F900 X55.104 Y75.469 E82.27416
M204 S5000
M205 X30 Y30
G0 F3600 X55.104 Y76.035
M204 S500
M205 X20 Y20
G1 F900 X58.059 Y78.989 E82.41313
M204 S5000
M205 X30 Y30
G0 F3600 X57.493 Y78.989
M204 S500
M205 X20 Y20
G1 F900 X55.104 Y76.6 E82.5255
M204 S5000
M205 X30 Y30
G0 F3600 X55.104 Y77.166
M204 S500
M205 X20 Y20
G1 F900 X56.927 Y78.989 E82.61125
M204 S5000
M205 X30 Y30
G0 F3600 X56.362 Y78.989
M204 S500
M205 X20 Y20
G1 F900 X55.104 Y77.732 E82.6704
M204 S5000
M205 X30 Y30
G0 F3600 X55.104 Y78.297
M204 S500
M205 X20 Y20
G1 F900 X55.796 Y78.989 E82.70295
M204 S5000
M205 X30 Y30
G0 F3600 X55.23 Y78.989
M204 S500
M205 X20 Y20
G1 F900 X55.104 Y78.863 E82.70888
M204 S5000
M205 X30 Y30
G1 F2400 E77.70888
G0 F3600 X69.945 Y79.54
G0 X69.945 Y80.825
G0 X69.945 Y81.905
G0 X69.945 Y83.19
G0 X69.945 Y98.58
G0 X70.015 Y98.65
M204 S500
M205 X20 Y20
;TYPE:WALL-INNER
G1 F2400 E82.70888
G1 F900 X54.535 Y98.65 E83.22374
G1 X54.535 Y83.17 E83.73861
G1 X70.015 Y83.17 E84.25348
G1 X70.015 Y98.65 E84.76834
M204 S5000
M205 X30 Y30
G0 F3600 X70.415 Y99.05
M204 S500
M205 X20 Y20
;TYPE:WALL-OUTER
G1 F900 X54.135 Y99.05 E85.30982
G1 X54.135 Y82.77 E85.85129
G1 X70.415 Y82.77 E86.39277
G1 X70.415 Y99.05 E86.93424
M204 S5000
M205 X30 Y30
G0 F3600 X70.215 Y99.05
G0 X69.945 Y98.58
G0 X69.625 Y98.26
M204 S500
M205 X20 Y20
;TYPE:SKIN
G1 F900 X54.925 Y98.26 E87.42317
G1 X54.925 Y83.56 E87.91209
G1 X69.625 Y83.56 E88.40101
G1 X69.625 Y98.26 E88.88994
M204 S5000
M205 X30 Y30
G0 F3600 X69.444 Y84.152
M204 S500
M205 X20 Y20
G1 F900 X69.032 Y83.739 E88.90934
M204 S5000
M205 X30 Y30
G0 F3600 X68.466 Y83.739
M204 S500
M205 X20 Y20
G1 F900 X69.444 Y84.718 E88.95537
M204 S5000
M205 X30 Y30
G0 F3600 X69.444 Y85.284
M204 S500
M205 X20 Y20
G1 F900 X67.9 Y83.739 E89.02802
M204 S5000
M205 X30 Y30
G0 F3600 X67.334 Y83.739
M204 S500
M205 X20 Y20
G1 F900 X69.444 Y85.849 E89.12726
M204 S5000
M205 X30 Y30
G0 F3600 X69.444 Y86.415
M204 S500
M205 X20 Y20
G1 F900 X66.769 Y83.739 E89.25311
M204 S5000
M205 X30 Y30
G0 F3600 X66.203 Y83.739
M204 S500
M205 X20 Y20
G1 F900 X69.444 Y86.981 E89.40558
M204 S5000
M205 X30 Y30
G0 F3600 X69.444 Y87.546
M204 S500
M205 X20 Y20
G1 F900 X65.637 Y83.739 E89.58465
M204 S5000
M205 X30 Y30
G0 F3600 X65.072 Y83.739
M204 S500
M205 X20 Y20
G1 F900 X69.444 Y88.112 E89.79032
M204 S5000
M205 X30 Y30
G0 F3600 X69.444 Y88.678
M204 S500
M205 X20 Y20
G1 F900 X64.506 Y83.739 E90.02261
M204 S5000
M205 X30 Y30
G0 F3600 X63.94 Y83.739
M204 S500
M205 X20 Y20
G1 F900 X69.444 Y89.243 E90.2815
M204 S5000
M205 X30 Y30
G0 F3600 X69.444 Y89.809
M204 S500
M205 X20 Y20
G1 F900 X63.375 Y83.739 E90.56699
M204 S5000
M205 X30 Y30
G0 F3600 X62.809 Y83.739
M204 S500
M205 X20 Y20
G1 F900 X69.444 Y90.375 E90.87911
M204 S5000
M205 X30 Y30
G0 F3600 X69.444 Y90.941
M204 S500
M205 X20 Y20
G1 F900 X62.243 Y83.739 E91.21784
M204 S5000
M205 X30 Y30
G0 F3600 X61.678 Y83.739
M204 S500
M205 X20 Y20
G1 F900 X69.444 Y91.506 E91.58316
M204 S5000
M205 X30 Y30
G0 F3600 X69.444 Y92.072
M204 S500
M205 X20 Y20
G1 F900 X61.112 Y83.739 E91.97509
