;FLAVOR:Marlin
;TIME:6629
;Filament used: 2.86184m
;Layer height: 0.2
;Generated with Cura_SteamEngine 3.6.0
M140 S60
M105
M190 S60
M104 S210
M105
M109 S210
M82 ;absolute extrusion mode
G28 ;Home
G1 Z15.0 F6000 ;Move the platform down 15mm
;Prime the extruder
G92 E0
G1 F200 E3
G92 E0
G92 E0
G1 F2400 E-5
;LAYER_COUNT:9
;LAYER:0
M107
M204 S5000
M205 X30 Y30
G0 F3600 X58.952 Y58.976 Z0.2
M204 S500
M205 X20 Y20
;TYPE:SKIRT
G1 F2400 E0
G1 F900 X59.484 Y58.497 E0.02381
G1 X60.066 Y58.082 E0.04758
G1 X60.691 Y57.733 E0.07139
G1 X61.351 Y57.457 E0.09519
G1 X62.037 Y57.256 E0.11896
G1 X62.742 Y57.133 E0.14277
G1 X63.49 Y57.089 E0.16769
G1 X156.511 Y57.09 E3.26158
G1 X157.225 Y57.13 E3.28536
G1 X157.93 Y57.249 E3.30914
G1 X158.618 Y57.447 E3.33295
G1 X159.279 Y57.72 E3.35674
G1 X159.906 Y58.065 E3.38054
G1 X160.49 Y58.477 E3.40431
G1 X161.024 Y58.952 E3.42809
G1 X161.503 Y59.484 E3.4519
G1 X161.918 Y60.066 E3.47567
G1 X162.267 Y60.691 E3.49948
G1 X162.543 Y61.351 E3.52327
G1 X162.744 Y62.037 E3.54705
G1 X162.867 Y62.742 E3.57085
G1 X162.911 Y63.49 E3.59577
G1 X162.91 Y156.511 E6.68966
G1 X162.87 Y157.225 E6.71345
G1 X162.751 Y157.93 E6.73723
G1 X162.553 Y158.618 E6.76104
G1 X162.28 Y159.279 E6.78483
G1 X161.935 Y159.906 E6.80863
G1 X161.523 Y160.49 E6.8324
G1 X161.048 Y161.024 E6.85617
G1 X160.516 Y161.503 E6.87998
G1 X159.934 Y161.918 E6.90376
G1 X159.309 Y162.267 E6.92756
G1 X158.649 Y162.543 E6.95136
G1 X157.963 Y162.744 E6.97513
G1 X157.258 Y162.867 E6.99894
G1 X156.51 Y162.911 E7.02386
G1 X63.489 Y162.91 E10.11775
G1 X62.775 Y162.87 E10.14153
G1 X62.07 Y162.751 E10.16531
G1 X61.382 Y162.553 E10.18913
G1 X60.721 Y162.28 E10.21291
G1 X60.094 Y161.935 E10.23671
G1 X59.51 Y161.523 E10.26049
G1 X58.976 Y161.048 E10.28426
G1 X58.497 Y160.516 E10.30807
G1 X58.082 Y159.934 E10.33184
G1 X57.733 Y159.309 E10.35565
G1 X57.457 Y158.649 E10.37944
G1 X57.256 Y157.963 E10.40322
G1 X57.133 Y157.258 E10.42702
G1 X57.089 Y156.51 E10.45194
G1 X57.09 Y63.489 E13.54583
G1 X57.13 Y62.775 E13.56962
G1 X57.249 Y62.07 E13.5934
G1 X57.447 Y61.382 E13.61721
G1 X57.72 Y60.721 E13.641
G1 X58.065 Y60.094 E13.6648
G1 X58.477 Y59.51 E13.68857
G1 X58.952 Y58.976 E13.71234
M204 S5000
M205 X30 Y30
G0 F3600 X59.346 Y59.15
M204 S500
M205 X20 Y20
G1 F900 X59.874 Y58.701 E13.73539
G1 X60.45 Y58.316 E13.75844
G1 X61.066 Y58.001 E13.78145
G1 X61.714 Y57.758 E13.80447
G1 X62.387 Y57.591 E13.82753
G1 X63.074 Y57.503 E13.85057
G1 X63.49 Y57.489 E13.86441
G1 X156.511 Y57.49 E16.9583
G1 X157.202 Y57.53 E16.98132
G1 X157.885 Y57.649 E17.00438
G1 X158.548 Y57.847 E17.0274
G1 X159.185 Y58.119 E17.05043
G1 X159.786 Y58.463 E17.07347
G1 X160.344 Y58.874 E17.09652
G1 X160.85 Y59.346 E17.11953
G1 X161.299 Y59.874 E17.14258
G1 X161.684 Y60.45 E17.16563
G1 X161.999 Y61.066 E17.18864
G1 X162.242 Y61.714 E17.21166
G1 X162.409 Y62.387 E17.23472
G1 X162.497 Y63.074 E17.25776
G1 X162.511 Y63.49 E17.2716
G1 X162.51 Y156.511 E20.36549
G1 X162.47 Y157.202 E20.38851
G1 X162.351 Y157.885 E20.41157
G1 X162.153 Y158.548 E20.43458
G1 X161.881 Y159.185 E20.45762
G1 X161.537 Y159.786 E20.48065
G1 X161.126 Y160.344 E20.5037
G1 X160.654 Y160.85 E20.52672
G1 X160.126 Y161.299 E20.54977
G1 X159.55 Y161.684 E20.57281
G1 X158.934 Y161.999 E20.59583
G1 X158.286 Y162.242 E20.61884
G1 X157.613 Y162.409 E20.64191
G1 X156.926 Y162.497 E20.66494
G1 X156.51 Y162.511 E20.67879
G1 X63.489 Y162.51 E23.77268
G1 X62.798 Y162.47 E23.7957
G1 X62.115 Y162.351 E23.81876
G1 X61.452 Y162.153 E23.84177
G1 X60.815 Y161.881 E23.86481
G1 X60.214 Y161.537 E23.88784
G1 X59.656 Y161.126 E23.91089
G1 X59.15 Y160.654 E23.93391
G1 X58.701 Y160.126 E23.95696
G1 X58.316 Y159.55 E23.98
G1 X58.001 Y158.934 E24.00302
G1 X57.758 Y158.286 E24.02603
G1 X57.591 Y157.613 E24.0491
G1 X57.503 Y156.926 E24.07213
G1 X57.489 Y156.51 E24.08598
G1 X57.49 Y63.489 E27.17987
G1 X57.53 Y62.798 E27.20289
G1 X57.649 Y62.115 E27.22595
G1 X57.847 Y61.452 E27.24896
G1 X58.119 Y60.815 E27.272
G1 X58.463 Y60.214 E27.29503
G1 X58.874 Y59.656 E27.31808
G1 X59.346 Y59.15 E27.3411
M204 S5000
M205 X30 Y30
G0 F3600 X59.739 Y59.331
M204 S500
M205 X20 Y20
G1 F900 X60.262 Y58.913 E27.36336
G1 X60.83 Y58.561 E27.38559
G1 X61.437 Y58.279 E27.40785
G1 X62.073 Y58.071 E27.43011
G1 X62.729 Y57.941 E27.45235
G1 X63.49 Y57.889 E27.47772
G1 X156.511 Y57.89 E30.57161
G1 X157.179 Y57.93 E30.59387
G1 X157.837 Y58.049 E30.61611
G1 X158.477 Y58.246 E30.63838
G1 X159.088 Y58.518 E30.66063
G1 X159.662 Y58.861 E30.68287
G1 X160.192 Y59.27 E30.70513
G1 X160.669 Y59.739 E30.72738
G1 X161.087 Y60.262 E30.74965
G1 X161.439 Y60.83 E30.77187
G1 X161.721 Y61.437 E30.79414
G1 X161.929 Y62.073 E30.81639
G1 X162.059 Y62.729 E30.83864
G1 X162.111 Y63.49 E30.86401
G1 X162.11 Y156.511 E33.9579
G1 X162.07 Y157.179 E33.98015
G1 X161.951 Y157.837 E34.00239
G1 X161.754 Y158.477 E34.02467
G1 X161.482 Y159.088 E34.04691
G1 X161.139 Y159.662 E34.06915
G1 X160.73 Y160.192 E34.09142
G1 X160.261 Y160.669 E34.11367
G1 X159.738 Y161.087 E34.13593
G1 X159.17 Y161.439 E34.15816
G1 X158.563 Y161.721 E34.18042
G1 X157.927 Y161.929 E34.20268
G1 X157.271 Y162.059 E34.22492
G1 X156.51 Y162.111 E34.25029
G1 X63.489 Y162.11 E37.34418
G1 X62.821 Y162.07 E37.36644
G1 X62.163 Y161.951 E37.38868
G1 X61.523 Y161.754 E37.41095
G1 X60.912 Y161.482 E37.4332
G1 X60.338 Y161.139 E37.45544
G1 X59.808 Y160.73 E37.4777
G1 X59.331 Y160.261 E37.49995
G1 X58.913 Y159.738 E37.52222
G1 X58.561 Y159.17 E37.54445
G1 X58.279 Y158.563 E37.56671
G1 X58.071 Y157.927 E37.58896
G1 X57.941 Y157.271 E37.61121
G1 X57.889 Y156.51 E37.63658
G1 X57.89 Y63.489 E40.73047
G1 X57.93 Y62.821 E40.75272
G1 X58.049 Y62.163 E40.77496
G1 X58.246 Y61.523 E40.79724
G1 X58.518 Y60.912 E40.81948
G1 X58.861 Y60.338 E40.84172
G1 X59.27 Y59.808 E40.86399
G1 X59.739 Y59.331 E40.88624
M204 S5000
M205 X30 Y30
G0 F3600 X59.665 Y59.966
M204 S500
M205 X20 Y20
G1 F900 X60.131 Y59.52 E40.90769
G1 X60.647 Y59.135 E40.9291
G1 X61.208 Y58.816 E40.95057
G1 X61.804 Y58.57 E40.97201
G1 X62.425 Y58.399 E40.99344
G1 X63.063 Y58.307 E41.01488
G1 X63.49 Y58.289 E41.02909
G1 X156.511 Y58.29 E44.12298
G1 X157.154 Y58.33 E44.14441
G1 X157.788 Y58.449 E44.16586
G1 X158.402 Y58.646 E44.18731
G1 X158.987 Y58.917 E44.20876
G1 X159.534 Y59.259 E44.23021
G1 X160.034 Y59.665 E44.25163
G1 X160.48 Y60.131 E44.27309
G1 X160.865 Y60.647 E44.2945
G1 X161.184 Y61.208 E44.31597
G1 X161.43 Y61.804 E44.33741
G1 X161.601 Y62.425 E44.35883
G1 X161.693 Y63.063 E44.38027
G1 X161.711 Y63.49 E44.39449
G1 X161.71 Y156.511 E47.48838
G1 X161.67 Y157.154 E47.50981
G1 X161.551 Y157.788 E47.53126
G1 X161.354 Y158.402 E47.55271
G1 X161.083 Y158.987 E47.57415
G1 X160.741 Y159.534 E47.59561
G1 X160.335 Y160.034 E47.61703
G1 X159.869 Y160.48 E47.63849
G1 X159.353 Y160.865 E47.6599
G1 X158.792 Y161.184 E47.68136
G1 X158.196 Y161.43 E47.70281
G1 X157.575 Y161.601 E47.72423
G1 X156.937 Y161.693 E47.74567
G1 X156.51 Y161.711 E47.75989
G1 X63.489 Y161.71 E50.85378
G1 X62.846 Y161.67 E50.8752
G1 X62.212 Y161.551 E50.89666
G1 X61.598 Y161.354 E50.91811
G1 X61.013 Y161.083 E50.93955
G1 X60.466 Y160.741 E50.96101
G1 X59.966 Y160.335 E50.98243
G1 X59.52 Y159.869 E51.00388
G1 X59.135 Y159.353 E51.0253
G1 X58.816 Y158.792 E51.04676
G1 X58.57 Y158.196 E51.06821
G1 X58.399 Y157.575 E51.08963
G1 X58.307 Y156.937 E51.11107
G1 X58.289 Y156.51 E51.12528
G1 X58.29 Y63.489 E54.21917
G1 X58.33 Y62.846 E54.2406
G1 X58.449 Y62.212 E54.26206
G1 X58.646 Y61.598 E54.2835
G1 X58.917 Y61.013 E54.30495
G1 X59.259 Y60.466 E54.3264
G1 X59.665 Y59.966 E54.34783
M204 S5000
M205 X30 Y30
G1 F2400 E49.34783
;MESH:letter_4.stl
G0 F3600 X62.815 Y64.094
G0 X64.094 Y64.094
G0 X79.49 Y79.49
G0 X79.56 Y79.56
M204 S500
M205 X20 Y20
;TYPE:WALL-INNER
G1 F2400 E54.34783
G1 F900 X64.08 Y79.56 E54.86269
G1 X64.08 Y64.08 E55.37756
G1 X79.56 Y64.08 E55.89243
G1 X79.56 Y79.56 E56.40729
M204 S5000
M205 X30 Y30
G0 F3600 X79.96 Y79.96
M204 S500
M205 X20 Y20
;TYPE:WALL-OUTER
G1 F900 X63.68 Y79.96 E56.94877
G1 X63.68 Y63.68 E57.49024
G1 X79.96 Y63.68 E58.03172
G1 X79.96 Y79.96 E58.57319
M204 S5000
M205 X30 Y30
G0 F3600 X79.76 Y79.96
G0 X79.49 Y79.49
G0 X79.17 Y79.17
M204 S500
M205 X20 Y20
;TYPE:SKIN
G1 F900 X64.47 Y79.17 E59.06212
G1 X64.47 Y64.47 E59.55104
G1 X79.17 Y64.47 E60.03997
G1 X79.17 Y79.17 E60.52889
M204 S5000
M205 X30 Y30
G0 F3600 X78.989 Y64.847
M204 S500
M205 X20 Y20
G1 F900 X78.792 Y64.65 E60.53816
M204 S5000
M205 X30 Y30
G0 F3600 X78.226 Y64.65
M204 S500
M205 X20 Y20
G1 F900 X78.989 Y65.413 E60.57405
M204 S5000
M205 X30 Y30
G0 F3600 X78.989 Y65.978
M204 S500
M205 X20 Y20
G1 F900 X77.66 Y64.65 E60.63653
M204 S5000
M205 X30 Y30
G0 F3600 X77.095 Y64.65
M204 S500
M205 X20 Y20
G1 F900 X78.989 Y66.544 E60.72562
M204 S5000
M205 X30 Y30
G0 F3600 X78.989 Y67.11
M204 S500
M205 X20 Y20
G1 F900 X76.529 Y64.65 E60.84133
M204 S5000
M205 X30 Y30
G0 F3600 X75.963 Y64.65
M204 S500
M205 X20 Y20
G1 F900 X78.989 Y67.675 E60.98364
M204 S5000
M205 X30 Y30
G0 F3600 X78.989 Y68.241
M204 S500
M205 X20 Y20
G1 F900 X75.398 Y64.65 E61.15255
M204 S5000
M205 X30 Y30
G0 F3600 X74.832 Y64.65
M204 S500
M205 X20 Y20
G1 F900 X78.989 Y68.807 E61.34808
M204 S5000
M205 X30 Y30
G0 F3600 X78.989 Y69.372
M204 S500
M205 X20 Y20
G1 F900 X74.266 Y64.65 E61.57022
M204 S5000
M205 X30 Y30
G0 F3600 X73.701 Y64.65
M204 S500
M205 X20 Y20
G1 F900 X78.989 Y69.938 E61.81895
M204 S5000
M205 X30 Y30
G0 F3600 X78.989 Y70.504
M204 S500
M205 X20 Y20
G1 F900 X73.135 Y64.65 E62.0943
M204 S5000
M205 X30 Y30
G0 F3600 X72.569 Y64.65
M204 S500
M205 X20 Y20
G1 F900 X78.989 Y71.069 E62.39626
M204 S5000
M205 X30 Y30
G0 F3600 X78.989 Y71.635
M204 S500
M205 X20 Y20
G1 F900 X72.003 Y64.65 E62.72483
M204 S5000
M205 X30 Y30
G0 F3600 X71.438 Y64.65
M204 S500
M205 X20 Y20
G1 F900 X78.989 Y72.201 E63.08001
M204 S5000
M205 X30 Y30
G0 F3600 X78.989 Y72.766
M204 S500
M205 X20 Y20
G1 F900 X70.872 Y64.65 E63.46178
M204 S5000
M205 X30 Y30
G0 F3600 X70.306 Y64.65
M204 S500
M205 X20 Y20
G1 F900 X78.989 Y73.332 E63.87018
M204 S5000
M205 X30 Y30
G0 F3600 X78.989 Y73.898
M204 S500
M205 X20 Y20
G1 F900 X69.741 Y64.65 E64.30518
M204 S5000
M205 X30 Y30
G0 F3600 X69.175 Y64.65
M204 S500
M205 X20 Y20
G1 F900 X78.989 Y74.464 E64.7668
M204 S5000
M205 X30 Y30
G0 F3600 X78.989 Y75.029
M204 S500
M205 X20 Y20
G1 F900 X68.609 Y64.65 E65.25502
M204 S5000
M205 X30 Y30
G0 F3600 X68.044 Y64.65
M204 S500
M205 X20 Y20
G1 F900 X78.989 Y75.595 E65.76984
M204 S5000
M205 X30 Y30
G0 F3600 X78.989 Y76.161
M204 S500
M205 X20 Y20
G1 F900 X67.478 Y64.65 E66.31128
M204 S5000
M205 X30 Y30
G0 F3600 X66.912 Y64.65
M204 S500
M205 X20 Y20
G1 F900 X78.989 Y76.726 E66.87932
M204 S5000
M205 X30 Y30
G0 F3600 X78.989 Y77.292
M204 S500
M205 X20 Y20
G1 F900 X66.347 Y64.65 E67.47396
M204 S5000
M205 X30 Y30
G0 F3600 X65.781 Y64.65
M204 S500
M205 X20 Y20
G1 F900 X78.989 Y77.858 E68.09523
M204 S5000
M205 X30 Y30
G0 F3600 X78.989 Y78.423
M204 S500
M205 X20 Y20
G1 F900 X65.215 Y64.65 E68.74309
M204 S5000
M205 X30 Y30
G0 F3600 X64.649 Y64.649
M204 S500
M205 X20 Y20
G1 F900 X78.989 Y78.989 E69.4176
M204 S5000
M205 X30 Y30
G0 F3600 X78.423 Y78.988
M204 S500
M205 X20 Y20
G1 F900 X64.649 Y65.215 E70.06546
M204 S5000
M205 X30 Y30
G0 F3600 X64.649 Y65.78
M204 S500
M205 X20 Y20
G1 F900 X77.857 Y78.988 E70.68673
M204 S5000
M205 X30 Y30
G0 F3600 X77.291 Y78.988
M204 S500
M205 X20 Y20
G1 F900 X64.649 Y66.346 E71.28137
M204 S5000
M205 X30 Y30
G0 F3600 X64.649 Y66.912
M204 S500
M205 X20 Y20
G1 F900 X76.726 Y78.988 E71.84941
M204 S5000
M205 X30 Y30
G0 F3600 X76.16 Y78.988
M204 S500
M205 X20 Y20
G1 F900 X64.649 Y67.477 E72.39085
M204 S5000
M205 X30 Y30
G0 F3600 X64.649 Y68.043
M204 S500
M205 X20 Y20
G1 F900 X75.594 Y78.988 E72.90567
M204 S5000
M205 X30 Y30
G0 F3600 X75.028 Y78.988
M204 S500
M205 X20 Y20
G1 F900 X64.649 Y68.609 E73.39387
M204 S5000
M205 X30 Y30
G0 F3600 X64.649 Y69.174
M204 S500
M205 X20 Y20
G1 F900 X74.463 Y78.988 E73.85549
M204 S5000
M205 X30 Y30
G0 F3600 X73.897 Y78.988
M204 S500
M205 X20 Y20
G1 F900 X64.649 Y69.74 E74.29049
M204 S5000
M205 X30 Y30
G0 F3600 X64.649 Y70.306
M204 S500
M205 X20 Y20
G1 F900 X73.331 Y78.988 E74.69886
M204 S5000
M205 X30 Y30
G0 F3600 X72.766 Y78.988
M204 S500
M205 X20 Y20
G1 F900 X64.649 Y70.871 E75.08066
M204 S5000
M205 X30 Y30
G0 F3600 X64.649 Y71.437
M204 S500
M205 X20 Y20
G1 F900 X72.2 Y78.988 E75.43583
M204 S5000
M205 X30 Y30
G0 F3600 X71.634 Y78.988
M204 S500
M205 X20 Y20
G1 F900 X64.649 Y72.003 E75.76439
M204 S5000
M205 X30 Y30
G0 F3600 X64.649 Y72.568
M204 S500
M205 X20 Y20
G1 F900 X71.069 Y78.988 E76.06636
M204 S5000
M205 X30 Y30
G0 F3600 X70.503 Y78.988
M204 S500
M205 X20 Y20
G1 F900 X64.649 Y73.134 E76.34172
M204 S5000
M205 X30 Y30
G0 F3600 X64.649 Y73.7
M204 S500
M205 X20 Y20
G1 F900 X69.937 Y78.988 E76.59045
M204 S5000
M205 X30 Y30
G0 F3600 X69.372 Y78.988
M204 S500
M205 X20 Y20
G1 F900 X64.649 Y74.266 E76.81258
M204 S5000
M205 X30 Y30
G0 F3600 X64.649 Y74.831
M204 S500
M205 X20 Y20
G1 F900 X68.806 Y78.988 E77.00811
M204 S5000
M205 X30 Y30
G0 F3600 X68.24 Y78.988
M204 S500
M205 X20 Y20
G1 F900 X64.649 Y75.397 E77.17702
M204 S5000
M205 X30 Y30
G0 F3600 X64.649 Y75.963
M204 S500
M205 X20 Y20
G1 F900 X67.675 Y78.988 E77.31933
M204 S5000
M205 X30 Y30
G0 F3600 X67.109 Y78.988
M204 S500
M205 X20 Y20
G1 F900 X64.649 Y76.528 E77.43505
M204 S5000
M205 X30 Y30
G0 F3600 X64.649 Y77.094
M204 S500
M205 X20 Y20
G1 F900 X66.543 Y78.988 E77.52413
M204 S5000
M205 X30 Y30
G0 F3600 X65.978 Y78.988
M204 S500
M205 X20 Y20
G1 F900 X64.649 Y77.66 E77.58662
M204 S5000
M205 X30 Y30
G0 F3600 X64.649 Y78.225
M204 S500
M205 X20 Y20
G1 F900 X65.412 Y78.988 E77.62251
M204 S5000
M205 X30 Y30
G0 F3600 X64.846 Y78.988
M204 S500
M205 X20 Y20
G1 F900 X64.649 Y78.791 E77.63178
M204 S5000
M205 X30 Y30
G1 F2400 E72.63178
G0 F3600 X79.49 Y79.54
G0 X79.49 Y80.825
G0 X79.49 Y81.905
G0 X79.49 Y83.19
G0 X79.49 Y98.58
G0 X79.56 Y98.65
M204 S500
M205 X20 Y20
;TYPE:WALL-INNER
G1 F2400 E77.63178
G1 F900 X64.08 Y98.65 E78.14664
G1 X64.08 Y83.17 E78.66151
G1 X79.56 Y83.17 E79.17638
G1 X79.56 Y98.65 E79.69125
M204 S5000
M205 X30 Y30
G0 F3600 X79.96 Y99.05
M204 S500
M205 X20 Y20
;TYPE:WALL-OUTER
G1 F900 X63.68 Y99.05 E80.23272
G1 X63.68 Y82.77 E80.7742
G1 X79.96 Y82.77 E81.31567
G1 X79.96 Y99.05 E81.85715
M204 S5000
M205 X30 Y30
G0 F3600 X79.76 Y99.05
G0 X79.49 Y98.58
G0 X79.17 Y98.26
M204 S500
M205 X20 Y20
;TYPE:SKIN
G1 F900 X64.47 Y98.26 E82.34607
G1 X64.47 Y83.56 E82.83499
G1 X79.17 Y83.56 E83.32392
G1 X79.17 Y98.26 E83.81284
M204 S5000
M205 X30 Y30
G0 F3600 X78.99 Y84.081
M204 S500
M205 X20 Y20
G1 F900 X78.647 Y83.739 E83.82895
M204 S5000
M205 X30 Y30
G0 F3600 X78.082 Y83.739
M204 S500
M205 X20 Y20
G1 F900 X78.99 Y84.647 E83.87166
M204 S5000
M205 X30 Y30
G0 F3600 X78.99 Y85.212
M204 S500
M205 X20 Y20
G1 F900 X77.516 Y83.739 E83.94097
M204 S5000
M205 X30 Y30
G0 F3600 X76.95 Y83.739
M204 S500
M205 X20 Y20
G1 F900 X78.99 Y85.778 E84.0369
M204 S5000
M205 X30 Y30
G0 F3600 X78.99 Y86.344
M204 S500
M205 X20 Y20
G1 F900 X76.385 Y83.739 E84.15943
M204 S5000
M205 X30 Y30
G0 F3600 X75.819 Y83.739
M204 S500
M205 X20 Y20
G1 F900 X78.99 Y86.909 E84.30856
M204 S5000
M205 X30 Y30
G0 F3600 X78.99 Y87.475
M204 S500
M205 X20 Y20
G1 F900 X75.253 Y83.739 E84.48432
M204 S5000
M205 X30 Y30
G0 F3600 X74.688 Y83.739
M204 S500
M205 X20 Y20
G1 F900 X78.99 Y88.041 E84.68667
M204 S5000
M205 X30 Y30
G0 F3600 X78.99 Y88.606
M204 S500
M205 X20 Y20
G1 F900 X74.122 Y83.739 E84.91562
M204 S5000
M205 X30 Y30
G0 F3600 X73.556 Y83.739
M204 S500
M205 X20 Y20
G1 F900 X78.99 Y89.172 E85.1712
M204 S5000
M205 X30 Y30
G0 F3600 X78.99 Y89.738
M204 S500
M205 X20 Y20
G1 F900 X72.991 Y83.739 E85.45337
M204 S5000
M205 X30 Y30
G0 F3600 X72.425 Y83.739
M204 S500
M205 X20 Y20
G1 F900 X78.99 Y90.303 E85.76215
M204 S5000
M205 X30 Y30
G0 F3600 X78.99 Y90.869
M204 S500
M205 X20 Y20
G1 F900 X71.859 Y83.739 E86.09754
M204 S5000
M205 X30 Y30
G0 F3600 X71.294 Y83.739
M204 S500
M205 X20 Y20
G1 F900 X78.99 Y91.435 E86.45954
M204 S5000
M205 X30 Y30
G0 F3600 X78.99 Y92
M204 S500
M205 X20 Y20
G1 F900 X70.728 Y83.739 E86.84813
M204 S5000
M205 X30 Y30
G0 F3600 X70.162 Y83.739
M204 S500
M205 X20 Y20
