;FLAVOR:Marlin
;TIME:7959
;Filament used: 3.44585m
;Layer height: 0.2
;Generated with Cura_SteamEngine 3.6.0
M140 S60
M105
M190 S60
M104 S210
M105
M109 S210
M82 ;absolute extrusion mode
G28 ;Home
G1 Z15.0 F6000 ;Move the platform down 15mm
;Prime the extruder
G92 E0
G1 F200 E3
G92 E0
G92 E0
G1 F2400 E-5
;LAYER_COUNT:9
;LAYER:0
M107
M204 S5000
M205 X30 Y30
G0 F3600 X58.477 Y49.965 Z0.2
M204 S500
M205 X20 Y20
;TYPE:SKIRT
G1 F2400 E0
G1 F900 X58.952 Y49.431 E0.02377
G1 X59.484 Y48.952 E0.04758
G1 X60.066 Y48.537 E0.07136
G1 X60.691 Y48.188 E0.09516
G1 X61.351 Y47.912 E0.11896
G1 X62.037 Y47.711 E0.14273
G1 X62.742 Y47.588 E0.16654
G1 X63.49 Y47.544 E0.19146
G1 X156.511 Y47.545 E3.28535
G1 X157.225 Y47.585 E3.30913
G1 X157.93 Y47.704 E3.33291
G1 X158.618 Y47.902 E3.35673
G1 X159.279 Y48.175 E3.38051
G1 X159.906 Y48.52 E3.40431
G1 X160.49 Y48.932 E3.42809
G1 X161.024 Y49.407 E3.45186
G1 X161.503 Y49.939 E3.47567
G1 X161.918 Y50.521 E3.49944
G1 X162.267 Y51.146 E3.52325
G1 X162.543 Y51.806 E3.54704
G1 X162.744 Y52.492 E3.57082
G1 X162.867 Y53.197 E3.59462
G1 X162.911 Y53.945 E3.61954
G1 X162.91 Y166.056 E7.34837
G1 X162.87 Y166.77 E7.37216
G1 X162.751 Y167.475 E7.39594
G1 X162.553 Y168.163 E7.41975
G1 X162.28 Y168.824 E7.44353
G1 X161.935 Y169.451 E7.46734
G1 X161.523 Y170.035 E7.49111
G1 X161.048 Y170.569 E7.51488
G1 X160.516 Y171.048 E7.53869
G1 X159.934 Y171.463 E7.56246
G1 X159.309 Y171.812 E7.58627
G1 X158.649 Y172.088 E7.61006
G1 X157.963 Y172.289 E7.63384
G1 X157.258 Y172.412 E7.65764
G1 X156.51 Y172.456 E7.68256
G1 X63.489 Y172.455 E10.77646
G1 X62.775 Y172.415 E10.80024
G1 X62.07 Y172.296 E10.82402
G1 X61.382 Y172.098 E10.84783
G1 X60.721 Y171.825 E10.87162
G1 X60.094 Y171.48 E10.89542
G1 X59.51 Y171.068 E10.91919
G1 X58.976 Y170.593 E10.94296
G1 X58.497 Y170.061 E10.96677
G1 X58.082 Y169.479 E10.99055
G1 X57.733 Y168.854 E11.01436
G1 X57.457 Y168.194 E11.03815
G1 X57.256 Y167.508 E11.06193
G1 X57.133 Y166.803 E11.08573
G1 X57.089 Y166.055 E11.11065
G1 X57.09 Y53.944 E14.83948
G1 X57.13 Y53.23 E14.86326
G1 X57.249 Y52.525 E14.88704
G1 X57.447 Y51.837 E14.91085
G1 X57.72 Y51.176 E14.93464
G1 X58.065 Y50.549 E14.95844
G1 X58.477 Y49.965 E14.98221
M204 S5000
M205 X30 Y30
G0 F3600 X58.874 Y50.111
M204 S500
M205 X20 Y20
G1 F900 X59.346 Y49.605 E15.00523
G1 X59.874 Y49.156 E15.02828
G1 X60.449 Y48.771 E15.0513
G1 X61.066 Y48.456 E15.07434
G1 X61.714 Y48.213 E15.09736
G1 X62.387 Y48.046 E15.12042
G1 X63.074 Y47.958 E15.14346
G1 X63.49 Y47.944 E15.1573
G1 X156.511 Y47.945 E18.25119
G1 X157.202 Y47.985 E18.27421
G1 X157.885 Y48.104 E18.29727
G1 X158.548 Y48.302 E18.32028
G1 X159.185 Y48.574 E18.34332
G1 X159.786 Y48.918 E18.36635
G1 X160.344 Y49.329 E18.3894
G1 X160.85 Y49.801 E18.41242
G1 X161.299 Y50.329 E18.43547
G1 X161.684 Y50.905 E18.45852
G1 X161.999 Y51.521 E18.48153
G1 X162.242 Y52.169 E18.50454
G1 X162.409 Y52.842 E18.52761
G1 X162.497 Y53.529 E18.55064
G1 X162.511 Y53.945 E18.56449
G1 X162.51 Y166.056 E22.29332
G1 X162.47 Y166.747 E22.31634
G1 X162.351 Y167.43 E22.3394
G1 X162.153 Y168.093 E22.36241
G1 X161.881 Y168.73 E22.38545
G1 X161.537 Y169.331 E22.40848
G1 X161.126 Y169.889 E22.43153
G1 X160.654 Y170.395 E22.45454
G1 X160.126 Y170.844 E22.4776
G1 X159.551 Y171.229 E22.50061
G1 X158.934 Y171.544 E22.52365
G1 X158.286 Y171.787 E22.54667
G1 X157.613 Y171.954 E22.56973
G1 X156.926 Y172.042 E22.59277
G1 X156.51 Y172.056 E22.60661
G1 X63.489 Y172.055 E25.70051
G1 X62.798 Y172.015 E25.72353
G1 X62.115 Y171.896 E25.74659
G1 X61.452 Y171.698 E25.7696
G1 X60.815 Y171.426 E25.79264
G1 X60.214 Y171.082 E25.81567
G1 X59.656 Y170.671 E25.83872
G1 X59.15 Y170.199 E25.86173
G1 X58.701 Y169.671 E25.88479
G1 X58.316 Y169.095 E25.90783
G1 X58.001 Y168.479 E25.93084
G1 X57.758 Y167.831 E25.95386
G1 X57.591 Y167.158 E25.97692
G1 X57.503 Y166.471 E25.99996
G1 X57.489 Y166.055 E26.0138
G1 X57.49 Y53.944 E29.74263
G1 X57.53 Y53.253 E29.76565
G1 X57.649 Y52.57 E29.78871
G1 X57.847 Y51.907 E29.81172
G1 X58.119 Y51.27 E29.83476
G1 X58.463 Y50.669 E29.85779
G1 X58.874 Y50.111 E29.88084
M204 S5000
M205 X30 Y30
G0 F3600 X59.27 Y50.263
M204 S500
M205 X20 Y20
G1 F900 X59.739 Y49.786 E29.90309
G1 X60.261 Y49.368 E29.92534
G1 X60.83 Y49.016 E29.94759
G1 X61.437 Y48.734 E29.96985
G1 X62.073 Y48.526 E29.99211
G1 X62.729 Y48.396 E30.01435
G1 X63.49 Y48.344 E30.03972
G1 X156.511 Y48.345 E33.13361
G1 X157.179 Y48.385 E33.15587
G1 X157.837 Y48.504 E33.17811
G1 X158.477 Y48.701 E33.20038
G1 X159.088 Y48.973 E33.22262
G1 X159.662 Y49.316 E33.24487
G1 X160.192 Y49.725 E33.26713
G1 X160.669 Y50.194 E33.28938
G1 X161.087 Y50.717 E33.31165
G1 X161.439 Y51.285 E33.33387
G1 X161.721 Y51.892 E33.35614
G1 X161.929 Y52.528 E33.37839
G1 X162.059 Y53.184 E33.40063
G1 X162.111 Y53.945 E33.426
G1 X162.11 Y166.056 E37.15483
G1 X162.07 Y166.724 E37.17709
G1 X161.951 Y167.382 E37.19933
G1 X161.754 Y168.022 E37.2216
G1 X161.482 Y168.633 E37.24385
G1 X161.139 Y169.207 E37.26609
G1 X160.73 Y169.737 E37.28835
G1 X160.261 Y170.214 E37.3106
G1 X159.739 Y170.632 E37.33284
G1 X159.17 Y170.984 E37.3551
G1 X158.563 Y171.266 E37.37736
G1 X157.927 Y171.474 E37.39962
G1 X157.271 Y171.604 E37.42186
G1 X156.51 Y171.656 E37.44723
G1 X63.489 Y171.655 E40.54112
G1 X62.821 Y171.615 E40.56338
G1 X62.163 Y171.496 E40.58562
G1 X61.523 Y171.299 E40.60789
G1 X60.912 Y171.027 E40.63013
G1 X60.338 Y170.684 E40.65237
G1 X59.808 Y170.275 E40.67464
G1 X59.331 Y169.806 E40.69689
G1 X58.913 Y169.283 E40.71916
G1 X58.561 Y168.715 E40.74138
G1 X58.279 Y168.108 E40.76364
G1 X58.071 Y167.472 E40.7859
G1 X57.941 Y166.816 E40.80814
G1 X57.889 Y166.055 E40.83351
G1 X57.89 Y53.944 E44.56234
G1 X57.93 Y53.276 E44.5846
G1 X58.049 Y52.618 E44.60684
G1 X58.246 Y51.978 E44.62911
G1 X58.518 Y51.367 E44.65135
G1 X58.861 Y50.793 E44.67359
G1 X59.27 Y50.263 E44.69586
M204 S5000
M205 X30 Y30
G0 F3600 X59.259 Y50.921
M204 S500
M205 X20 Y20
G1 F900 X59.665 Y50.421 E44.71728
G1 X60.131 Y49.975 E44.73874
G1 X60.647 Y49.59 E44.76015
G1 X61.208 Y49.271 E44.78161
G1 X61.804 Y49.025 E44.80306
G1 X62.425 Y48.854 E44.82448
G1 X63.063 Y48.762 E44.84592
G1 X63.49 Y48.744 E44.86014
G1 X156.511 Y48.745 E47.95403
G1 X157.154 Y48.785 E47.97546
G1 X157.788 Y48.904 E47.99691
G1 X158.402 Y49.101 E48.01836
G1 X158.987 Y49.372 E48.0398
G1 X159.534 Y49.714 E48.06126
G1 X160.034 Y50.12 E48.08268
G1 X160.48 Y50.586 E48.10413
G1 X160.865 Y51.102 E48.12555
G1 X161.184 Y51.663 E48.14701
G1 X161.43 Y52.259 E48.16846
G1 X161.601 Y52.88 E48.18988
G1 X161.693 Y53.518 E48.21132
G1 X161.711 Y53.945 E48.22553
G1 X161.71 Y166.056 E51.95436
G1 X161.67 Y166.699 E51.97579
G1 X161.551 Y167.333 E51.99724
G1 X161.354 Y167.947 E52.01869
G1 X161.083 Y168.532 E52.04014
G1 X160.741 Y169.079 E52.06159
G1 X160.335 Y169.579 E52.08301
G1 X159.869 Y170.025 E52.10447
G1 X159.353 Y170.41 E52.12588
G1 X158.792 Y170.729 E52.14735
G1 X158.196 Y170.975 E52.16879
G1 X157.575 Y171.146 E52.19021
G1 X156.937 Y171.238 E52.21165
G1 X156.51 Y171.256 E52.22587
G1 X63.489 Y171.255 E55.31976
G1 X62.846 Y171.215 E55.34119
G1 X62.212 Y171.096 E55.36264
G1 X61.598 Y170.899 E55.38409
G1 X61.013 Y170.628 E55.40553
G1 X60.466 Y170.286 E55.42699
G1 X59.966 Y169.88 E55.44841
G1 X59.52 Y169.414 E55.46987
G1 X59.135 Y168.898 E55.49128
G1 X58.816 Y168.337 E55.51274
G1 X58.57 Y167.741 E55.53419
G1 X58.399 Y167.12 E55.55561
G1 X58.307 Y166.482 E55.57705
G1 X58.289 Y166.055 E55.59127
G1 X58.29 Y53.944 E59.32009
G1 X58.33 Y53.301 E59.34152
G1 X58.449 Y52.667 E59.36298
G1 X58.646 Y52.053 E59.38442
G1 X58.917 Y51.468 E59.40587
G1 X59.259 Y50.921 E59.42732
M204 S5000
M205 X30 Y30
G1 F2400 E54.42732
;MESH:letter_2.stl
G0 F3600 X62.815 Y54.549
G0 X64.094 Y54.549
G0 X79.49 Y69.945
G0 X79.56 Y70.015
M204 S500
M205 X20 Y20
;TYPE:WALL-INNER
G1 F2400 E59.42732
G1 F900 X64.08 Y70.015 E59.94219
G1 X64.08 Y54.535 E60.45706
G1 X79.56 Y54.535 E60.97192
G1 X79.56 Y70.015 E61.48679
M204 S5000
M205 X30 Y30
G0 F3600 X79.96 Y70.415
M204 S500
M205 X20 Y20
;TYPE:WALL-OUTER
G1 F900 X63.68 Y70.415 E62.02827
G1 X63.68 Y54.135 E62.56974
G1 X79.96 Y54.135 E63.11122
G1 X79.96 Y70.415 E63.65269
M204 S5000
M205 X30 Y30
G0 F3600 X79.76 Y70.415
G0 X79.49 Y69.945
G0 X79.17 Y69.625
M204 S500
M205 X20 Y20
;TYPE:SKIN
G1 F900 X64.47 Y69.625 E64.14161
G1 X64.47 Y54.925 E64.63054
G1 X79.17 Y54.925 E65.11946
G1 X79.17 Y69.625 E65.60839
M204 S5000
M205 X30 Y30
G0 F3600 X78.989 Y55.23
M204 S500
M205 X20 Y20
G1 F900 X78.863 Y55.104 E65.61431
M204 S5000
M205 X30 Y30
G0 F3600 X78.297 Y55.104
M204 S500
M205 X20 Y20
G1 F900 X78.989 Y55.796 E65.64686
M204 S5000
M205 X30 Y30
G0 F3600 X78.989 Y56.362
M204 S500
M205 X20 Y20
G1 F900 X77.732 Y55.104 E65.70601
M204 S5000
M205 X30 Y30
G0 F3600 X77.166 Y55.104
M204 S500
M205 X20 Y20
G1 F900 X78.989 Y56.927 E65.79176
M204 S5000
M205 X30 Y30
G0 F3600 X78.989 Y57.493
M204 S500
M205 X20 Y20
G1 F900 X76.6 Y55.104 E65.90413
M204 S5000
M205 X30 Y30
G0 F3600 X76.035 Y55.104
M204 S500
M205 X20 Y20
G1 F900 X78.989 Y58.059 E66.0431
M204 S5000
M205 X30 Y30
G0 F3600 X78.989 Y58.624
M204 S500
M205 X20 Y20
G1 F900 X75.469 Y55.104 E66.20867
M204 S5000
M205 X30 Y30
G0 F3600 X74.903 Y55.104
M204 S500
M205 X20 Y20
G1 F900 X78.989 Y59.19 E66.40086
M204 S5000
M205 X30 Y30
G0 F3600 X78.989 Y59.756
M204 S500
M205 X20 Y20
G1 F900 X74.338 Y55.104 E66.61966
M204 S5000
M205 X30 Y30
G0 F3600 X73.772 Y55.104
M204 S500
M205 X20 Y20
G1 F900 X78.989 Y60.321 E66.86505
M204 S5000
M205 X30 Y30
G0 F3600 X78.989 Y60.887
M204 S500
M205 X20 Y20
G1 F900 X73.206 Y55.104 E67.13706
M204 S5000
M205 X30 Y30
G0 F3600 X72.641 Y55.104
M204 S500
M205 X20 Y20
G1 F900 X78.989 Y61.453 E67.43568
M204 S5000
M205 X30 Y30
G0 F3600 X78.989 Y62.018
M204 S500
M205 X20 Y20
G1 F900 X72.075 Y55.104 E67.76089
M204 S5000
M205 X30 Y30
G0 F3600 X71.509 Y55.104
M204 S500
M205 X20 Y20
G1 F900 X78.989 Y62.584 E68.11273
M204 S5000
M205 X30 Y30
G0 F3600 X78.989 Y63.15
M204 S500
M205 X20 Y20
G1 F900 X70.944 Y55.104 E68.49116
M204 S5000
M205 X30 Y30
G0 F3600 X70.378 Y55.104
M204 S500
M205 X20 Y20
G1 F900 X78.989 Y63.715 E68.8962
M204 S5000
M205 X30 Y30
G0 F3600 X78.989 Y64.281
M204 S500
M205 X20 Y20
G1 F900 X69.812 Y55.104 E69.32786
M204 S5000
M205 X30 Y30
G0 F3600 X69.246 Y55.104
M204 S500
M205 X20 Y20
G1 F900 X78.989 Y64.847 E69.78614
M204 S5000
M205 X30 Y30
G0 F3600 X78.989 Y65.413
M204 S500
M205 X20 Y20
G1 F900 X68.681 Y55.104 E70.27102
M204 S5000
M205 X30 Y30
G0 F3600 X68.115 Y55.104
M204 S500
M205 X20 Y20
G1 F900 X78.989 Y65.978 E70.7825
M204 S5000
M205 X30 Y30
G0 F3600 X78.989 Y66.544
M204 S500
M205 X20 Y20
G1 F900 X67.549 Y55.104 E71.3206
M204 S5000
M205 X30 Y30
G0 F3600 X66.984 Y55.104
M204 S500
M205 X20 Y20
G1 F900 X78.989 Y67.11 E71.8853
M204 S5000
M205 X30 Y30
G0 F3600 X78.989 Y67.675
M204 S500
M205 X20 Y20
G1 F900 X66.418 Y55.104 E72.4766
M204 S5000
M205 X30 Y30
G0 F3600 X65.852 Y55.104
M204 S500
M205 X20 Y20
G1 F900 X78.989 Y68.241 E73.09453
M204 S5000
M205 X30 Y30
G0 F3600 X78.989 Y68.807
M204 S500
M205 X20 Y20
G1 F900 X65.287 Y55.104 E73.73905
M204 S5000
M205 X30 Y30
G0 F3600 X64.721 Y55.104
M204 S500
M205 X20 Y20
G1 F900 X78.989 Y69.372 E74.41017
M204 S5000
M205 X30 Y30
G0 F3600 X78.495 Y69.444
M204 S500
M205 X20 Y20
G1 F900 X64.649 Y55.598 E75.06145
M204 S5000
M205 X30 Y30
G0 F3600 X64.649 Y56.164
M204 S500
M205 X20 Y20
G1 F900 X77.929 Y69.444 E75.6861
M204 S5000
M205 X30 Y30
G0 F3600 X77.363 Y69.444
M204 S500
M205 X20 Y20
G1 F900 X64.649 Y56.729 E76.28415
M204 S5000
M205 X30 Y30
G0 F3600 X64.649 Y57.295
M204 S500
M205 X20 Y20
G1 F900 X76.798 Y69.444 E76.8556
M204 S5000
M205 X30 Y30
G0 F3600 X76.232 Y69.444
M204 S500
M205 X20 Y20
G1 F900 X64.649 Y57.861 E77.40043
M204 S5000
M205 X30 Y30
G0 F3600 X64.649 Y58.426
M204 S500
M205 X20 Y20
G1 F900 X75.666 Y69.444 E77.91866
M204 S5000
M205 X30 Y30
G0 F3600 X75.101 Y69.444
M204 S500
M205 X20 Y20
G1 F900 X64.649 Y58.992 E78.41029
M204 S5000
M205 X30 Y30
G0 F3600 X64.649 Y59.558
M204 S500
M205 X20 Y20
G1 F900 X74.535 Y69.444 E78.87529
M204 S5000
M205 X30 Y30
G0 F3600 X73.969 Y69.444
M204 S500
M205 X20 Y20
G1 F900 X64.649 Y60.123 E79.3137
M204 S5000
M205 X30 Y30
G0 F3600 X64.649 Y60.689
M204 S500
M205 X20 Y20
G1 F900 X73.404 Y69.444 E79.72551
M204 S5000
M205 X30 Y30
G0 F3600 X72.838 Y69.444
M204 S500
M205 X20 Y20
G1 F900 X64.649 Y61.255 E80.1107
M204 S5000
M205 X30 Y30
G0 F3600 X64.649 Y61.82
M204 S500
M205 X20 Y20
G1 F900 X72.272 Y69.444 E80.46928
M204 S5000
M205 X30 Y30
G0 F3600 X71.706 Y69.444
M204 S500
M205 X20 Y20
G1 F900 X64.649 Y62.386 E80.80125
M204 S5000
M205 X30 Y30
G0 F3600 X64.649 Y62.952
M204 S500
M205 X20 Y20
G1 F900 X71.141 Y69.444 E81.10661
M204 S5000
M205 X30 Y30
G0 F3600 X70.575 Y69.444
M204 S500
M205 X20 Y20
G1 F900 X64.649 Y63.517 E81.38537
M204 S5000
M205 X30 Y30
G0 F3600 X64.649 Y64.083
M204 S500
M205 X20 Y20
G1 F900 X70.009 Y69.444 E81.63751
M204 S5000
M205 X30 Y30
G0 F3600 X69.444 Y69.444
M204 S500
M205 X20 Y20
G1 F900 X64.649 Y64.649 E81.86306
M204 S5000
M205 X30 Y30
G0 F3600 X64.649 Y65.215
M204 S500
M205 X20 Y20
G1 F900 X68.878 Y69.444 E82.06198
M204 S5000
M205 X30 Y30
G0 F3600 X68.312 Y69.444
M204 S500
M205 X20 Y20
G1 F900 X64.649 Y65.78 E82.2343
M204 S5000
M205 X30 Y30
G0 F3600 X64.649 Y66.346
M204 S500
M205 X20 Y20
G1 F900 X67.747 Y69.444 E82.38002
M204 S5000
M205 X30 Y30
G0 F3600 X67.181 Y69.444
M204 S500
M205 X20 Y20
G1 F900 X64.649 Y66.912 E82.49911
M204 S5000
M205 X30 Y30
G0 F3600 X64.649 Y67.477
M204 S500
M205 X20 Y20
G1 F900 X66.615 Y69.444 E82.59161
M204 S5000
M205 X30 Y30
G0 F3600 X66.05 Y69.444
M204 S500
M205 X20 Y20
G1 F900 X64.649 Y68.043 E82.65751
M204 S5000
M205 X30 Y30
G0 F3600 X64.649 Y68.609
M204 S500
M205 X20 Y20
G1 F900 X65.484 Y69.444 E82.69679
M204 S5000
M205 X30 Y30
G0 F3600 X64.918 Y69.444
M204 S500
M205 X20 Y20
G1 F900 X64.649 Y69.174 E82.70946
M204 S5000
M205 X30 Y30
G1 F2400 E77.70946
G0 F3600 X79.49 Y69.995
G0 X79.49 Y71.28
G0 X79.49 Y72.36
G0 X79.49 Y73.645
G0 X79.49 Y89.035
G0 X79.56 Y89.105
M204 S500
M205 X20 Y20
;TYPE:WALL-INNER
G1 F2400 E82.70946
G1 F900 X64.08 Y89.105 E83.22433
G1 X64.08 Y73.625 E83.7392
G1 X79.56 Y73.625 E84.25406
G1 X79.56 Y89.105 E84.76893
M204 S5000
M205 X30 Y30
G0 F3600 X79.96 Y89.505
M204 S500
M205 X20 Y20
;TYPE:WALL-OUTER
G1 F900 X63.68 Y89.505 E85.31041
G1 X63.68 Y73.225 E85.85188
G1 X79.96 Y73.225 E86.39336
G1 X79.96 Y89.505 E86.93483
M204 S5000
M205 X30 Y30
G0 F3600 X79.76 Y89.505
G0 X79.49 Y89.035
G0 X79.17 Y88.715
M204 S500
M205 X20 Y20
;TYPE:SKIN
G1 F900 X64.47 Y88.715 E87.42375
G1 X64.47 Y74.015 E87.91268
G1 X79.17 Y74.015 E88.4016
G1 X79.17 Y88.715 E88.89053
M204 S5000
M205 X30 Y30
G0 F3600 X78.99 Y74.464
M204 S500
M205 X20 Y20
G1 F900 X78.72 Y74.195 E88.9032
M204 S5000
M205 X30 Y30
G0 F3600 X78.155 Y74.195
M204 S500
M205 X20 Y20
G1 F900 X78.99 Y75.03 E88.94248
M204 S5000
M205 X30 Y30
G0 F3600 X78.99 Y75.596
M204 S500
M205 X20 Y20
G1 F900 X77.589 Y74.195 E89.00838
M204 S5000
M205 X30 Y30
G0 F3600 X77.023 Y74.195
M204 S500
M205 X20 Y20
G1 F900 X78.99 Y76.161 E89.10088
M204 S5000
M205 X30 Y30
G0 F3600 X78.99 Y76.727
M204 S500
M205 X20 Y20
G1 F900 X76.458 Y74.195 E89.21997
M204 S5000
M205 X30 Y30
G0 F3600 X75.892 Y74.195
M204 S500
M205 X20 Y20
G1 F900 X78.99 Y77.293 E89.36569
M204 S5000
M205 X30 Y30
G0 F3600 X78.99 Y77.858
M204 S500
M205 X20 Y20
G1 F900 X75.326 Y74.195 E89.53801
M204 S5000
M205 X30 Y30
G0 F3600 X74.76 Y74.195
M204 S500
M205 X20 Y20
G1 F900 X78.99 Y78.424 E89.73696
M204 S5000
M205 X30 Y30
G0 F3600 X78.99 Y78.99
M204 S500
M205 X20 Y20
G1 F900 X74.195 Y74.195 E89.9625
M204 S5000
M205 X30 Y30
G0 F3600 X73.629 Y74.195
M204 S500
M205 X20 Y20
G1 F900 X78.99 Y79.555 E90.21464
M204 S5000
M205 X30 Y30
G0 F3600 X78.99 Y80.121
M204 S500
M205 X20 Y20
G1 F900 X73.063 Y74.195 E90.4934
M204 S5000
M205 X30 Y30
G0 F3600 X72.498 Y74.195
M204 S500
M205 X20 Y20
G1 F900 X78.99 Y80.687 E90.79877
M204 S5000
M205 X30 Y30
G0 F3600 X78.99 Y81.252
M204 S500
M205 X20 Y20
G1 F900 X71.932 Y74.195 E91.13073
M204 S5000
M205 X30 Y30
G0 F3600 X71.366 Y74.195
M204 S500
M205 X20 Y20
G1 F900 X78.99 Y81.818 E91.48932
M204 S5000
M205 X30 Y30
G0 F3600 X78.99 Y82.384
M204 S500
M205 X20 Y20
