;FLAVOR:Marlin
;TIME:9535
;Filament used: 4.12487m
;Layer height: 0.2
;Generated with Cura_SteamEngine 3.6.0
M140 S60
M105
M190 S60
M104 S210
M105
M109 S210
M82 ;absolute extrusion mode
G28 ;Home
G1 Z15.0 F6000 ;Move the platform down 15mm
;Prime the extruder
G92 E0
G1 F200 E3
G92 E0
G92 E0
G1 F2400 E-5
;LAYER_COUNT:9
;LAYER:0
M107
M204 S5000
M205 X30 Y30
G0 F3600 X49.407 Y49.431 Z0.2
M204 S500
M205 X20 Y20
;TYPE:SKIRT
G1 F2400 E0
G1 F900 X49.939 Y48.952 E0.02381
G1 X50.521 Y48.537 E0.04758
G1 X51.146 Y48.188 E0.07139
G1 X51.806 Y47.912 E0.09519
G1 X52.492 Y47.711 E0.11896
G1 X53.197 Y47.588 E0.14277
G1 X53.945 Y47.544 E0.16769
G1 X166.056 Y47.545 E3.89651
G1 X166.77 Y47.585 E3.9203
G1 X167.475 Y47.704 E3.94408
G1 X168.163 Y47.902 E3.96789
G1 X168.824 Y48.175 E3.99168
G1 X169.451 Y48.52 E4.01548
G1 X170.035 Y48.932 E4.03925
G1 X170.569 Y49.407 E4.06302
G1 X171.048 Y49.939 E4.08683
G1 X171.463 Y50.521 E4.11061
G1 X171.812 Y51.146 E4.13441
G1 X172.088 Y51.806 E4.15821
G1 X172.289 Y52.492 E4.18198
G1 X172.412 Y53.197 E4.20579
G1 X172.456 Y53.945 E4.23071
G1 X172.455 Y166.056 E7.95954
G1 X172.415 Y166.77 E7.98332
G1 X172.296 Y167.475 E8.0071
G1 X172.098 Y168.163 E8.03091
G1 X171.825 Y168.824 E8.0547
G1 X171.48 Y169.451 E8.0785
G1 X171.068 Y170.035 E8.10227
G1 X170.593 Y170.569 E8.12604
G1 X170.061 Y171.048 E8.14985
G1 X169.479 Y171.463 E8.17363
G1 X168.854 Y171.812 E8.19744
G1 X168.194 Y172.088 E8.22123
G1 X167.508 Y172.289 E8.24501
G1 X166.803 Y172.412 E8.26881
G1 X166.055 Y172.456 E8.29373
G1 X53.944 Y172.455 E12.02256
G1 X53.23 Y172.415 E12.04634
G1 X52.525 Y172.296 E12.07012
G1 X51.837 Y172.098 E12.09393
G1 X51.176 Y171.825 E12.11772
G1 X50.549 Y171.48 E12.14152
G1 X49.965 Y171.068 E12.16529
G1 X49.431 Y170.593 E12.18906
G1 X48.952 Y170.061 E12.21287
G1 X48.537 Y169.479 E12.23665
G1 X48.188 Y168.854 E12.26046
G1 X47.912 Y168.194 E12.28425
G1 X47.711 Y167.508 E12.30803
G1 X47.588 Y166.803 E12.33183
G1 X47.544 Y166.055 E12.35675
G1 X47.545 Y53.944 E16.08558
G1 X47.585 Y53.23 E16.10936
G1 X47.704 Y52.525 E16.13314
G1 X47.902 Y51.837 E16.15696
G1 X48.175 Y51.176 E16.18074
G1 X48.52 Y50.549 E16.20454
G1 X48.932 Y49.965 E16.22831
G1 X49.407 Y49.431 E16.25209
M204 S5000
M205 X30 Y30
G0 F3600 X49.801 Y49.605
M204 S500
M205 X20 Y20
G1 F900 X50.329 Y49.156 E16.27514
G1 X50.904 Y48.771 E16.29815
G1 X51.521 Y48.456 E16.3212
G1 X52.169 Y48.213 E16.34421
G1 X52.842 Y48.046 E16.36728
G1 X53.529 Y47.958 E16.39031
G1 X53.945 Y47.944 E16.40416
G1 X166.056 Y47.945 E20.13298
G1 X166.747 Y47.985 E20.156
G1 X167.43 Y48.104 E20.17906
G1 X168.093 Y48.302 E20.20208
G1 X168.73 Y48.574 E20.22511
G1 X169.331 Y48.918 E20.24815
G1 X169.889 Y49.329 E20.2712
G1 X170.395 Y49.801 E20.29421
G1 X170.844 Y50.329 E20.31726
G1 X171.229 Y50.904 E20.34028
G1 X171.544 Y51.521 E20.36332
G1 X171.787 Y52.169 E20.38634
G1 X171.954 Y52.842 E20.4094
G1 X172.042 Y53.529 E20.43244
G1 X172.056 Y53.945 E20.44628
G1 X172.055 Y166.056 E24.17511
G1 X172.015 Y166.747 E24.19813
G1 X171.896 Y167.43 E24.22119
G1 X171.698 Y168.093 E24.2442
G1 X171.426 Y168.73 E24.26724
G1 X171.082 Y169.331 E24.29027
G1 X170.671 Y169.889 E24.31332
G1 X170.199 Y170.395 E24.33634
G1 X169.671 Y170.844 E24.35939
G1 X169.096 Y171.229 E24.38241
G1 X168.479 Y171.544 E24.40545
G1 X167.831 Y171.787 E24.42847
G1 X167.158 Y171.954 E24.45153
G1 X166.471 Y172.042 E24.47457
G1 X166.055 Y172.056 E24.48841
G1 X53.944 Y172.055 E28.21724
G1 X53.253 Y172.015 E28.24026
G1 X52.57 Y171.896 E28.26332
G1 X51.907 Y171.698 E28.28633
G1 X51.27 Y171.426 E28.30937
G1 X50.669 Y171.082 E28.3324
G1 X50.111 Y170.671 E28.35545
G1 X49.605 Y170.199 E28.37847
G1 X49.156 Y169.671 E28.40152
G1 X48.771 Y169.096 E28.42453
G1 X48.456 Y168.479 E28.44757
G1 X48.213 Y167.831 E28.47059
G1 X48.046 Y167.158 E28.49366
G1 X47.958 Y166.471 E28.51669
G1 X47.944 Y166.055 E28.53054
G1 X47.945 Y53.944 E32.25936
G1 X47.985 Y53.253 E32.28238
G1 X48.104 Y52.57 E32.30544
G1 X48.302 Y51.907 E32.32846
G1 X48.574 Y51.27 E32.35149
G1 X48.918 Y50.669 E32.37453
G1 X49.329 Y50.111 E32.39758
G1 X49.801 Y49.605 E32.42059
M204 S5000
M205 X30 Y30
G0 F3600 X50.194 Y49.786
M204 S500
M205 X20 Y20
G1 F900 X50.716 Y49.368 E32.44283
G1 X51.285 Y49.016 E32.46509
G1 X51.892 Y48.734 E32.48735
G1 X52.528 Y48.526 E32.50961
G1 X53.184 Y48.396 E32.53185
G1 X53.945 Y48.344 E32.55722
G1 X166.056 Y48.345 E36.28604
G1 X166.724 Y48.385 E36.3083
G1 X167.382 Y48.504 E36.33054
G1 X168.022 Y48.701 E36.35281
G1 X168.633 Y48.973 E36.37506
G1 X169.207 Y49.316 E36.3973
G1 X169.737 Y49.725 E36.41957
G1 X170.214 Y50.194 E36.44182
G1 X170.632 Y50.716 E36.46406
G1 X170.984 Y51.285 E36.48631
G1 X171.266 Y51.892 E36.50857
G1 X171.474 Y52.528 E36.53083
G1 X171.604 Y53.184 E36.55307
G1 X171.656 Y53.945 E36.57844
G1 X171.655 Y166.056 E40.30727
G1 X171.615 Y166.724 E40.32953
G1 X171.496 Y167.382 E40.35177
G1 X171.299 Y168.022 E40.37404
G1 X171.027 Y168.633 E40.39628
G1 X170.684 Y169.207 E40.41852
G1 X170.275 Y169.737 E40.44079
G1 X169.806 Y170.214 E40.46304
G1 X169.284 Y170.632 E40.48528
G1 X168.715 Y170.984 E40.50753
G1 X168.108 Y171.266 E40.5298
G1 X167.472 Y171.474 E40.55205
G1 X166.816 Y171.604 E40.57429
G1 X166.055 Y171.656 E40.59966
G1 X53.944 Y171.655 E44.32849
G1 X53.276 Y171.615 E44.35075
G1 X52.618 Y171.496 E44.37299
G1 X51.978 Y171.299 E44.39526
G1 X51.367 Y171.027 E44.41751
G1 X50.793 Y170.684 E44.43975
G1 X50.263 Y170.275 E44.46201
G1 X49.786 Y169.806 E44.48426
G1 X49.368 Y169.284 E44.5065
G1 X49.016 Y168.715 E44.52876
G1 X48.734 Y168.108 E44.55102
G1 X48.526 Y167.472 E44.57328
G1 X48.396 Y166.816 E44.59552
G1 X48.344 Y166.055 E44.62089
G1 X48.345 Y53.944 E48.34972
G1 X48.385 Y53.276 E48.37197
G1 X48.504 Y52.618 E48.39421
G1 X48.701 Y51.978 E48.41649
G1 X48.973 Y51.367 E48.43873
G1 X49.316 Y50.793 E48.46097
G1 X49.725 Y50.263 E48.48324
G1 X50.194 Y49.786 E48.50549
M204 S5000
M205 X30 Y30
G0 F3600 X50.12 Y50.421
M204 S500
M205 X20 Y20
G1 F900 X50.586 Y49.975 E48.52694
G1 X51.102 Y49.59 E48.54835
G1 X51.663 Y49.271 E48.56982
G1 X52.259 Y49.025 E48.59126
G1 X52.88 Y48.854 E48.61269
G1 X53.518 Y48.762 E48.63413
G1 X53.945 Y48.744 E48.64834
G1 X166.056 Y48.745 E52.37717
G1 X166.699 Y48.785 E52.39859
G1 X167.333 Y48.904 E52.42005
G1 X167.947 Y49.101 E52.4415
G1 X168.532 Y49.372 E52.46294
G1 X169.079 Y49.714 E52.4844
G1 X169.579 Y50.12 E52.50582
G1 X170.025 Y50.586 E52.52727
G1 X170.41 Y51.102 E52.54869
G1 X170.729 Y51.663 E52.57015
G1 X170.975 Y52.259 E52.5916
G1 X171.146 Y52.88 E52.61302
G1 X171.238 Y53.518 E52.63446
G1 X171.256 Y53.945 E52.64867
G1 X171.255 Y166.056 E56.3775
G1 X171.215 Y166.699 E56.39893
G1 X171.096 Y167.333 E56.42038
G1 X170.899 Y167.947 E56.44183
G1 X170.628 Y168.532 E56.46327
G1 X170.286 Y169.079 E56.48473
G1 X169.88 Y169.579 E56.50615
G1 X169.414 Y170.025 E56.52761
G1 X168.898 Y170.41 E56.54902
G1 X168.337 Y170.729 E56.57048
G1 X167.741 Y170.975 E56.59193
G1 X167.12 Y171.146 E56.61335
G1 X166.482 Y171.238 E56.63479
G1 X166.055 Y171.256 E56.64901
G1 X53.944 Y171.255 E60.37783
G1 X53.301 Y171.215 E60.39926
G1 X52.667 Y171.096 E60.42072
G1 X52.053 Y170.899 E60.44216
G1 X51.468 Y170.628 E60.46361
G1 X50.921 Y170.286 E60.48506
G1 X50.421 Y169.88 E60.50649
G1 X49.975 Y169.414 E60.52794
G1 X49.59 Y168.898 E60.54935
G1 X49.271 Y168.337 E60.57082
G1 X49.025 Y167.741 E60.59226
G1 X48.854 Y167.12 E60.61369
G1 X48.762 Y166.482 E60.63513
G1 X48.744 Y166.055 E60.64934
G1 X48.745 Y53.944 E64.37817
G1 X48.785 Y53.301 E64.39959
G1 X48.904 Y52.667 E64.42105
G1 X49.101 Y52.053 E64.4425
G1 X49.372 Y51.468 E64.46394
G1 X49.714 Y50.921 E64.4854
G1 X50.12 Y50.421 E64.50682
M204 S5000
M205 X30 Y30
G1 F2400 E59.50682
;MESH:Object 1
G0 F3600 X53.27 Y54.549
G0 X54.549 Y54.549
G0 X69.945 Y69.945
G0 X70.015 Y70.015
M204 S500
M205 X20 Y20
;TYPE:WALL-INNER
G1 F2400 E64.50682
G1 F900 X54.535 Y70.015 E65.02169
G1 X54.535 Y54.535 E65.53655
G1 X70.015 Y54.535 E66.05142
G1 X70.015 Y70.015 E66.56629
M204 S5000
M205 X30 Y30
G0 F3600 X70.415 Y70.415
M204 S500
M205 X20 Y20
;TYPE:WALL-OUTER
G1 F900 X54.135 Y70.415 E67.10776
G1 X54.135 Y54.135 E67.64924
G1 X70.415 Y54.135 E68.19071
G1 X70.415 Y70.415 E68.73219
M204 S5000
M205 X30 Y30
G0 F3600 X70.215 Y70.415
G0 X69.945 Y69.945
G0 X69.625 Y69.625
M204 S500
M205 X20 Y20
;TYPE:SKIN
G1 F900 X54.925 Y69.625 E69.22111
G1 X54.925 Y54.925 E69.71003
G1 X69.625 Y54.925 E70.19896
G1 X69.625 Y69.625 E70.68788
M204 S5000
M205 X30 Y30
G0 F3600 X69.444 Y55.302
M204 S500
M205 X20 Y20
G1 F900 X69.247 Y55.105 E70.69715
M204 S5000
M205 X30 Y30
G0 F3600 X68.681 Y55.105
M204 S500
M205 X20 Y20
G1 F900 X69.444 Y55.868 E70.73304
M204 S5000
M205 X30 Y30
G0 F3600 X69.444 Y56.434
M204 S500
M205 X20 Y20
G1 F900 X68.116 Y55.105 E70.79553
M204 S5000
M205 X30 Y30
G0 F3600 X67.55 Y55.105
M204 S500
M205 X20 Y20
G1 F900 X69.444 Y56.999 E70.88461
M204 S5000
M205 X30 Y30
G0 F3600 X69.444 Y57.565
M204 S500
M205 X20 Y20
G1 F900 X66.984 Y55.105 E71.00033
M204 S5000
M205 X30 Y30
G0 F3600 X66.419 Y55.105
M204 S500
M205 X20 Y20
G1 F900 X69.444 Y58.131 E71.14264
M204 S5000
M205 X30 Y30
G0 F3600 X69.444 Y58.696
M204 S500
M205 X20 Y20
G1 F900 X65.853 Y55.105 E71.31155
M204 S5000
M205 X30 Y30
G0 F3600 X65.287 Y55.105
M204 S500
M205 X20 Y20
G1 F900 X69.444 Y59.262 E71.50708
M204 S5000
M205 X30 Y30
G0 F3600 X69.444 Y59.828
M204 S500
M205 X20 Y20
G1 F900 X64.722 Y55.105 E71.72921
M204 S5000
M205 X30 Y30
G0 F3600 X64.156 Y55.105
M204 S500
M205 X20 Y20
G1 F900 X69.444 Y60.393 E71.97794
M204 S5000
M205 X30 Y30
G0 F3600 X69.444 Y60.959
M204 S500
M205 X20 Y20
G1 F900 X63.59 Y55.105 E72.2533
M204 S5000
M205 X30 Y30
G0 F3600 X63.025 Y55.105
M204 S500
M205 X20 Y20
G1 F900 X69.444 Y61.525 E72.55525
M204 S5000
M205 X30 Y30
G0 F3600 X69.444 Y62.091
M204 S500
M205 X20 Y20
G1 F900 X62.459 Y55.105 E72.88383
M204 S5000
M205 X30 Y30
G0 F3600 X61.893 Y55.105
M204 S500
M205 X20 Y20
G1 F900 X69.444 Y62.656 E73.239
M204 S5000
M205 X30 Y30
G0 F3600 X69.444 Y63.222
M204 S500
M205 X20 Y20
G1 F900 X61.328 Y55.105 E73.62078
M204 S5000
M205 X30 Y30
G0 F3600 X60.762 Y55.105
M204 S500
M205 X20 Y20
G1 F900 X69.444 Y63.788 E74.02917
M204 S5000
M205 X30 Y30
G0 F3600 X69.444 Y64.353
M204 S500
M205 X20 Y20
G1 F900 X60.196 Y55.105 E74.46417
M204 S5000
M205 X30 Y30
G0 F3600 X59.631 Y55.105
M204 S500
M205 X20 Y20
G1 F900 X69.444 Y64.919 E74.92577
M204 S5000
M205 X30 Y30
G0 F3600 X69.444 Y65.485
M204 S500
M205 X20 Y20
G1 F900 X59.065 Y55.105 E75.41399
M204 S5000
M205 X30 Y30
G0 F3600 X58.499 Y55.105
M204 S500
M205 X20 Y20
G1 F900 X69.444 Y66.05 E75.92881
M204 S5000
M205 X30 Y30
G0 F3600 X69.444 Y66.616
M204 S500
M205 X20 Y20
G1 F900 X57.933 Y55.105 E76.47025
M204 S5000
M205 X30 Y30
G0 F3600 X57.368 Y55.105
M204 S500
M205 X20 Y20
G1 F900 X69.444 Y67.182 E77.03829
M204 S5000
M205 X30 Y30
G0 F3600 X69.444 Y67.747
M204 S500
M205 X20 Y20
G1 F900 X56.802 Y55.105 E77.63293
M204 S5000
M205 X30 Y30
G0 F3600 X56.236 Y55.105
M204 S500
M205 X20 Y20
G1 F900 X69.444 Y68.313 E78.2542
M204 S5000
M205 X30 Y30
G0 F3600 X69.444 Y68.879
M204 S500
M205 X20 Y20
G1 F900 X55.671 Y55.105 E78.90206
M204 S5000
M205 X30 Y30
G0 F3600 X55.104 Y55.104
M204 S500
M205 X20 Y20
G1 F900 X69.444 Y69.444 E79.57657
M204 S5000
M205 X30 Y30
G0 F3600 X68.878 Y69.444
M204 S500
M205 X20 Y20
G1 F900 X55.104 Y55.67 E80.22446
M204 S5000
M205 X30 Y30
G0 F3600 X55.104 Y56.236
M204 S500
M205 X20 Y20
G1 F900 X68.312 Y69.444 E80.84572
M204 S5000
M205 X30 Y30
G0 F3600 X67.747 Y69.444
M204 S500
M205 X20 Y20
G1 F900 X55.104 Y56.801 E81.44041
M204 S5000
M205 X30 Y30
G0 F3600 X55.104 Y57.367
M204 S500
M205 X20 Y20
G1 F900 X67.181 Y69.444 E82.00847
M204 S5000
M205 X30 Y30
G0 F3600 X66.615 Y69.444
M204 S500
M205 X20 Y20
G1 F900 X55.104 Y57.933 E82.54992
M204 S5000
M205 X30 Y30
G0 F3600 X55.104 Y58.498
M204 S500
M205 X20 Y20
G1 F900 X66.05 Y69.444 E83.06478
M204 S5000
M205 X30 Y30
G0 F3600 X65.484 Y69.444
M204 S500
M205 X20 Y20
G1 F900 X55.104 Y59.064 E83.55302
M204 S5000
M205 X30 Y30
G0 F3600 X55.104 Y59.63
M204 S500
M205 X20 Y20
G1 F900 X64.918 Y69.444 E84.01465
M204 S5000
M205 X30 Y30
G0 F3600 X64.353 Y69.444
M204 S500
M205 X20 Y20
G1 F900 X55.104 Y60.196 E84.44967
M204 S5000
M205 X30 Y30
G0 F3600 X55.104 Y60.761
M204 S500
M205 X20 Y20
G1 F900 X63.787 Y69.444 E84.85809
M204 S5000
M205 X30 Y30
G0 F3600 X63.221 Y69.444
M204 S500
M205 X20 Y20
G1 F900 X55.104 Y61.327 E85.23989
M204 S5000
M205 X30 Y30
G0 F3600 X55.104 Y61.893
M204 S500
M205 X20 Y20
G1 F900 X62.656 Y69.444 E85.59509
M204 S5000
M205 X30 Y30
G0 F3600 X62.09 Y69.444
M204 S500
M205 X20 Y20
G1 F900 X55.104 Y62.458 E85.92369
M204 S5000
M205 X30 Y30
G0 F3600 X55.104 Y63.024
M204 S500
M205 X20 Y20
G1 F900 X61.524 Y69.444 E86.22566
M204 S5000
M205 X30 Y30
G0 F3600 X60.958 Y69.444
M204 S500
M205 X20 Y20
G1 F900 X55.104 Y63.59 E86.50102
M204 S5000
M205 X30 Y30
G0 F3600 X55.104 Y64.155
M204 S500
M205 X20 Y20
G1 F900 X60.393 Y69.444 E86.7498
M204 S5000
M205 X30 Y30
G0 F3600 X59.827 Y69.444
M204 S500
M205 X20 Y20
G1 F900 X55.104 Y64.721 E86.97195
M204 S5000
M205 X30 Y30
G0 F3600 X55.104 Y65.287
M204 S500
M205 X20 Y20
G1 F900 X59.261 Y69.444 E87.16748
M204 S5000
M205 X30 Y30
G0 F3600 X58.696 Y69.444
M204 S500
M205 X20 Y20
G1 F900 X55.104 Y65.852 E87.33644
M204 S5000
M205 X30 Y30
G0 F3600 X55.104 Y66.418
M204 S500
M205 X20 Y20
G1 F900 X58.13 Y69.444 E87.47877
M204 S5000
M205 X30 Y30
G0 F3600 X57.564 Y69.444
M204 S500
M205 X20 Y20
G1 F900 X55.104 Y66.984 E87.59449
M204 S5000
M205 X30 Y30
G0 F3600 X55.104 Y67.549
M204 S500
M205 X20 Y20
G1 F900 X56.999 Y69.444 E87.68362
M204 S5000
M205 X30 Y30
G0 F3600 X56.433 Y69.444
M204 S500
M205 X20 Y20
G1 F900 X55.104 Y68.115 E87.74613
M204 S5000
M205 X30 Y30
G0 F3600 X55.104 Y68.681
M204 S500
M205 X20 Y20
G1 F900 X55.867 Y69.444 E87.78202
M204 S5000
M205 X30 Y30
G0 F3600 X55.302 Y69.444
M204 S500
M205 X20 Y20
G1 F900 X55.104 Y69.246 E87.79133
M204 S5000
M205 X30 Y30
G1 F2400 E82.79133
G0 F3600 X69.945 Y69.995
G0 X69.945 Y71.28
G0 X69.945 Y72.36
G0 X69.945 Y73.645
G0 X69.945 Y89.035
G0 X70.015 Y89.105
M204 S500
M205 X20 Y20
;TYPE:WALL-INNER
G1 F2400 E87.79133
G1 F900 X54.535 Y89.105 E88.3062
G1 X54.535 Y73.625 E88.82107
G1 X70.015 Y73.625 E89.33594
G1 X70.015 Y89.105 E89.8508
M204 S5000
M205 X30 Y30
G0 F3600 X70.415 Y89.505
M204 S500
M205 X20 Y20
;TYPE:WALL-OUTER
G1 F900 X54.135 Y89.505 E90.39228
G1 X54.135 Y73.225 E90.93375
G1 X70.415 Y73.225 E91.47523
G1 X70.415 Y89.505 E92.0167
M204 S5000
M205 X30 Y30
G0 F3600 X70.215 Y89.505
G0 X69.945 Y89.035
G0 X69.625 Y88.715
M204 S500
M205 X20 Y20
;TYPE:SKIN
G1 F900 X54.925 Y88.715 E92.50563
G1 X54.925 Y74.015 E92.99455
G1 X69.625 Y74.015 E93.48347
G1 X69.625 Y88.715 E93.9724
M204 S5000
M205 X30 Y30
G0 F3600 X69.444 Y74.536
M204 S500
M205 X20 Y20
G1 F900 X69.102 Y74.193 E93.98851
M204 S5000
M205 X30 Y30
G0 F3600 X68.537 Y74.193
M204 S500
M205 X20 Y20
G1 F900 X69.444 Y75.101 E94.03119
M204 S5000
M205 X30 Y30
G0 F3600 X69.444 Y75.667
M204 S500
M205 X20 Y20
G1 F900 X67.971 Y74.193 E94.1005
M204 S5000
M205 X30 Y30
G0 F3600 X67.405 Y74.193
M204 S500
M205 X20 Y20
G1 F900 X69.444 Y76.233 E94.19644
M204 S5000
M205 X30 Y30
G0 F3600 X69.444 Y76.798
M204 S500
M205 X20 Y20
G1 F900 X66.839 Y74.193 E94.31897
M204 S5000
M205 X30 Y30
G0 F3600 X66.274 Y74.193
M204 S500
M205 X20 Y20
G1 F900 X69.444 Y77.364 E94.4681
M204 S5000
M205 X30 Y30
G0 F3600 X69.444 Y77.93
M204 S500
M205 X20 Y20
G1 F900 X65.708 Y74.193 E94.64385
M204 S5000
M205 X30 Y30
G0 F3600 X65.142 Y74.193
M204 S500
M205 X20 Y20
G1 F900 X69.444 Y78.495 E94.8462
M204 S5000
M205 X30 Y30
G0 F3600 X69.444 Y79.061
M204 S500
M205 X20 Y20
G1 F900 X64.577 Y74.193 E95.07516
M204 S5000
M205 X30 Y30
G0 F3600 X64.011 Y74.193
M204 S500
M205 X20 Y20
G1 F900 X69.444 Y79.627 E95.33073
M204 S5000
M205 X30 Y30
G0 F3600 X69.444 Y80.192
M204 S500
M205 X20 Y20
G1 F900 X63.445 Y74.193 E95.61291
M204 S5000
M205 X30 Y30
G0 F3600 X62.88 Y74.193
M204 S500
M205 X20 Y20
G1 F900 X69.444 Y80.758 E95.92168
M204 S5000
M205 X30 Y30
G0 F3600 X69.444 Y81.324
M204 S500
M205 X20 Y20
G1 F900 X62.314 Y74.193 E96.25708
M204 S5000
M205 X30 Y30
G0 F3600 X61.748 Y74.193
M204 S500
M205 X20 Y20
G1 F900 X69.444 Y81.89 E96.6191
M204 S5000
M205 X30 Y30
